!!!!SEGMENT: pl-kj--bj-muz-10207-iii-1_zarebski-juliusz--reverie-op-5-no-1.krn
!!!cenid: 18xx:3562
!!!COM: Zarębski, Juliusz
!!!COM-rismID: pe30020631
!!!CDT: 1854/02/28-1885/09/15
!!!CNT:
!!!OTL: Rêverie op. 5 no. 1
!!!PDT: 1881
!!!AGN:
!!!SMS-siglum: PL-Kj
!!!SMS-shelfmark: BJ Muz. 10207 III 1
!!!SMS-shelfwork: W
!!!SMS-variant:
!!!SMS-altvar:
!!!NIFC-rismSourceID:
!!!NIFC-rismChildID:
!!!NIFC-islandoraID: none
!!!URL-pdf-islandora:
!!!URL-scan: https://polona.pl/item/deux-morceaux-en-forme-de-mazurka-reverie-et-passion-pour-piano-a-quatre-mains-op,ODI4MzE5NTg/3 @EN{Scan on Polona} @PL{Skany w portalu Polona}
!!!ONB-nifc:
!!!OMD: Moderato.
!!!OMD-mod:
!!!AIN: 2 piano
!!!key: c
**kern	**kern	**dynam	**kern	**fing	**kern	**dynam
*part2	*part2	*part2	*part1	*part1	*part1	*part1
*staff4	*staff3	*	*staff2	*staff2	*staff1	*
*I"Piano	*I"Piano	*	*I"Piano	*	*I"Piano	*
*mI"Pianoforte II	*mI"Pianoforte II	*	*mI"Pianoforte I	*	*mI"Pianoforte I	*
*I'SECONDO.	*I'SECONDO.	*	*I'PRIMO.	*	*I'PRIMO.	*
*mI'pf 2	*mI'pf 2	*	*mI'pf 1	*	*mI'pf 1	*
*Ipiano	*Ipiano	*	*Ipiano	*	*Ipiano	*LO:
*ICklav	*ICklav	*	*ICklav	*	*ICklav	*
*clefF4	*clefF4	*	*clefG2	*	*clefG2	*
*k[b-e-a-]	*k[b-e-a-]	*	*k[b-e-a-]	*	*k[b-e-a-]	*
*c:	*c:	*	*c:	*	*c:	*
*M3/4	*M3/4	*	*M3/4	*	*M3/4	*
=1	=1	=1	=1	=1	=1	=1
*ped	*	*	*ped	*	*	*
!LO:MO:mod=!LO&colon;TX&colon;a&colon;i&colon;t=sempre rubato	!LO:MO:mod=!LO&colon;TX&colon;a&colon;i&colon;t=molto espressivo	!	!	!	!	!
!null	!null	!	!	!	!	!
!	!	!	!	!	!LO:TX:b:i:t=sempre rubato	!
!	!	!	!	!	!LO:TX:a:i:t=molto espressivo	!
!	!LO:MO:mod=!LO&colon;TX&colon;a&colon;B&colon;t=Moderato	!	!	!	!LO:MO:mod=!LO&colon;TX&colon;a&colon;B&colon;t=Moderato	!
!	!LO:TX:a:B:t=Moderato.	!	!	!	!LO:TX:a:B:t=Moderato.	!
[2.C [2.CC/	4r	p	2.r	.	([2g/	p
.	(4e- 4c 4G\	.	.	.	.	.
.	4c 4G 4E-\)	.	.	.	8.g/L]	.
.	.	.	.	.	16a-/Jk	.
!!ignore
=2	=2	=2	=2	=2	=2	=2
2.C] 2.CC/]	4r	.	2.r	.	[2an/	<
.	(4e- 4c 4G\	.	.	.	.	.
.	4c 4G 4E-\)	.	.	.	8.a/L]	.
*Xped	*	*	*Xped	*	*	*
.	.	.	.	.	16b-/Jk	.
=3	=3	=3	=3	=3	=3	=3
*ped	*	*	*ped	*	*	*
2.C 2.CC/	4r	.	2.r	.	2bn\	.
.	(4f 4d 4A-\	.	.	.	.	.
.	4d 4A- 4F\)	.	.	.	[4aa-^\	[
*Xped	*	*	*Xped	*	*	*
=4	=4	=4	=4	=4	=4	=4
*ped	*	*	*ped	*	*	*
!	!	!	!	!	!LO:MO:mod=!LO&colon;TX&colon;b&colon;i&colon;t=poco rit.	!
!	!	!	!	!	!null	!
2.C 2.CC/	4r	.	2.r	.	8aa-\L]	>
.	.	.	.	.	8gg\	.
!	!LO:TX:b:i:t=poco rit.	!	!	!	!	!
.	(4d 4A- 4F\	.	.	.	8ff\	.
!	!	!	!	!	!LO:MO:mod=!null:null	!
!	!	!	!	!	!LO:TX:b:i:t=poco rit.	!
.	.	.	.	.	8dd\	.
.	4f 4d 4A-\)	.	.	.	8bn~\	.
*Xped	*	*	*Xped	*	*	*
.	.	.	.	.	8a-\J)	]
=5	=5	=5	=5	=5	=5	=5
*ped	*	*	*ped	*	*	*
!	!LO:TX:a:i:t=a tempo	!	!	!	!LO:TX:a:i:t=a tempo	!
[2.C [2.CC/	4r	.	2.r	.	([2g/	<
.	(4f 4c 4G\	.	.	.	.	.
.	4e- 4c 4G\)	.	.	.	8.g/L]	.
.	.	.	.	.	16a-/Jk	.
=6	=6	=6	=6	=6	=6	=6
2.C] 2.CC/]	4r	.	2.r	.	[2an/	.
.	(4g 4e- 4c\	.	.	.	.	.
.	4e- 4c 4G\)	.	.	.	8.a/L]	.
.	.	.	.	.	16b-/Jk	.
*Xped	*	*	*Xped	*	*	*
!	!	!	!LO:LB:g=original	!	!LO:LB:g=original	!
=7	=7	=7	=7	=7	=7	=7
*ped	*	*	*ped	*	*	*
2.BB- 2.BBB-/	4r	.	2.r	.	2cc\	.
.	(4a- 4e- 4c\	.	.	.	.	.
.	4e- 4c 4F\)	.	.	.	[4bb-^\	[
!LO:LB:g=original	!LO:LB:g=original	!	!	!	!	!
=8	=8	=8	=8	=8	=8	=8
*^	*	*	*	*	*	*
4r	2.BB- 2.BBB-\	4r	.	2.r;	.	8bb-\L]	>
.	.	.	.	.	.	8aa-\	.
2F^>;>/	.	(4.a- 4.e- 4.c^>;>\	.	.	.	8ff\	.
.	.	.	.	.	.	8cc\	.
.	.	.	.	.	.	8ee-;\	.
*Xped	*	*	*	*Xped	*	*	*
.	.	8d\)	.	.	.	8dd\J)	]
*v	*v	*	*	*	*	*	*
=9	=9	=9	=9	=9	=9	=9
*	*	*^	*	*	*	*
*ped	*	*	*	*ped	*	*	*
!	!	!	!	!	!	!LO:MO:mod=!null:null	!
!	!	!	!	!	!	!LO:TX:b:t=cresc._ _ _:ext=ud:problem=dynamics with extention lines	!LO:HP:t=cresc._ _ _:ext=ud
2.E- 2.EE-/	4r	.	.	2.r	.	([2b-\	<
!	!LO:MO:mod=!null:null	!	!	!	!	!	!
!	!LO:TX:b:t=cresc._ _ _:ext=ud:problem=dynamics with extention lines	!	!LO:HP:t=cresc._ _ _:ext=ud	!	!	!	!
!	!	!LO:MO:mod=.	!	!	!	!	!
.	(4a- 4e- 4B-\	>	<	.	.	.	.
!	!	!LO:MO:mod=.	!	!	!	!	!
.	4g 4e- 4B-\)	]	.	.	.	8.b-\L]	.
*Xped	*	*	*	*Xped	*	*	*
.	.	.	.	.	.	16bn\Jk	.
*	*clefG2	*	*	*	*	*	*
=10	=10	=10	=10	=10	=10	=10	=10
*ped	*	*	*	*ped	*	*	*
2.E- 2.EE-/	4r	.	.	2.r	.	[2cc\	.
!	!	!LO:MO:mod=.	!	!	!	!	!
.	(4an 4e- 4B-/	>	.	.	.	.	.
!	!	!LO:MO:mod=.	!	!	!	!	!
.	4g 4e- 4B-/)	]	.	.	.	8.cc\L]	.
*Xped	*	*	*	*Xped	*	*	*
.	.	.	[	.	.	16cc#X\Jk	.
*	*	*v	*v	*	*	*	*
=11	=11	=11	=11	=11	=11	=11
*ped	*	*	*ped	*	*	*
2.D 2.DD/	4r	f	4r	.	2dd\	.
.	(4an 4e- 4B-/	.	4r	.	.	.
*Xped	*	*	*Xped	*	*	*
.	4g 4e- 4B-/)	.	[4dd\	.	[4ddd\	[ f
=12	=12	=12	=12	=12	=12	=12
*ped	*	*	*ped	*	*	*
2.C 2.CC/	4r	.	4dd\]	.	4ddd\]	.
.	(4g 4d 4An^>/	.	4dd\	.	4ddd\	.
*Xped	*	*	*Xped	*	*	*
.	4f#X 4d 4A^>/)	.	4dd\	.	4ddd\)	.
=13	=13	=13	=13	=13	=13	=13
*ped	*	*	*ped	*	*	*
[2.BB- [2.BBB-/	4r	.	2.dd^\	.	(2.ddd^\	.
.	(4g 4d 4B-/	.	.	.	.	.
*Xped	*	*	*Xped	*	*	*
.	4d 4B- 4G/)	.	.	.	.	.
!	!	!	!LO:LB:g=original	!	!LO:LB:g=original	!
=14	=14	=14	=14	=14	=14	=14
*ped	*	*	*ped	*	*	*
!	!	!LO:HP:t=dim.	!	!	!	!LO:HP:t=dim.
2.BB-] 2.BBB-/]	4r	>	4b-\	.	4bb-\	>
.	(4fn 4d 4B-/	.	4r	.	4.dd\	.
.	4d 4A- 4F/)	.	4r	.	.	.
*Xped	*	*	*Xped	*	*	*
.	.	.	.	.	8ee-\	.
*	*clefF4	*	*	*	*	*
!LO:LB:g=original	!LO:LB:g=original	!	!	!	!	!
=15	=15	=15	=15	=15	=15	=15
*ped	*	*	*ped	*	*	*
2.AAn 2.AAAn/	4r	.	2.r	.	2.ff\	.
.	(4f 4d 4An\	.	.	.	.	.
*Xped	*	*	*Xped	*	*	*
.	4d 4A 4F\)	.	.	.	.	.
=16	=16	=16	=16	=16	=16	=16
*ped	*	*	*	*	*	*
2.GG 2.GGG/	4r	.	2.r	.	4dd\	.
.	(4d 4Bn 4G\	.	.	.	4.f/	.
.	4B 4G 4F\)	.	.	.	.	.
*Xped	*	*	*	*	*	*
.	.	.	.	.	8f#X/)	.
=17	=17	=17	=17	=17	=17	=17
[2.C [2.CC/	4r	p	2.r	.	([2g/	p
.	(4e- 4c 4G\	.	.	.	.	.
.	4c 4G 4E-\)	.	.	.	8.g/L]	<
.	.	.	.	.	16a-/Jk	.
=18	=18	=18	=18	=18	=18	=18
2.C] 2.CC/]	4r	.	2.r	.	[2an/	.
.	(4e- 4c 4G\	.	.	.	.	.
.	4c 4G 4E-\)	.	.	.	8.a/L]	.
.	.	.	.	.	16b-/Jk	.
=19	=19	=19	=19	=19	=19	=19
2.C 2.CC/	4r	.	2.r	.	2bn\	.
.	(4f 4d 4A-\	.	.	.	.	.
.	4d 4A- 4F\)	.	.	.	[4aa-^>\	[
=20	=20	=20	=20	=20	=20	=20
!	!	!	!	!	!LO:MO:mod=!LO&colon;TX&colon;b&colon;i&colon;t=poco rit.	!
!	!	!	!	!	!null	!
2.C 2.CC/	4r	.	2.r	.	8aa-\L]	.
.	.	.	.	.	8gg\	.
!	!LO:TX:b:i:t=poco rit.	!	!	!	!	!
.	(4d 4A- 4F\	.	.	.	8ff\	.
!	!	!	!	!	!LO:MO:mod=!null:null	!
!	!	!	!	!	!LO:TX:b:i:t=poco rit.	!
.	.	.	.	.	8dd\	.
.	4f 4d 4A-\)	.	.	.	8bn\	.
.	.	.	.	.	8a-\J)	.
!	!	!	!LO:LB:g=original	!	!LO:LB:g=original	!
=21	=21	=21	=21	=21	=21	=21
!	!LO:TX:a:i:t=a tempo	!	!	!	!LO:TX:a:i:t=a tempo	!
[2.C [2.CC/	4r	.	2.r	.	([2g/	<
.	(4f 4c 4G\	.	.	.	.	.
.	4e- 4c 4G\)	.	.	.	8.g/L]	.
.	.	.	.	.	16a-/Jk	.
!LO:LB:g=original	!LO:LB:g=original	!	!	!	!	!
=22	=22	=22	=22	=22	=22	=22
2.C] 2.CC/]	4r	.	2.r	.	[2an/	.
.	(4g 4e- 4c\	.	.	.	.	.
.	4e- 4c 4G\)	.	.	.	8.a/L]	.
.	.	.	.	.	16b-/Jk	.
=23	=23	=23	=23	=23	=23	=23
2.BB- 2.BBB-/	4r	.	2.r	.	2cc\	.
.	(4a- 4e- 4c\	.	.	.	.	.
.	4e- 4c 4F\)	.	.	.	[4bb-^\	[
=24	=24	=24	=24	=24	=24	=24
*^	*	*	*	*	*	*
4r	2.BB- 2.BBB-\	4r	.	2.r;	.	8bb-\L]	>
.	.	.	.	.	.	8aa-\	.
2F^>;>/	.	(4.a- 4.e- 4.c^>;>\	.	.	.	8ff\	.
.	.	.	.	.	.	8cc\	.
.	.	.	.	.	.	8ee-;\	.
.	.	8d\)	.	.	.	8dd\J)	]
*v	*v	*	*	*	*	*	*
=25	=25	=25	=25	=25	=25	=25
*	*	*^	*	*	*	*
!	!	!	!	!	!	!LO:MO:mod=!null:null	!
!	!	!	!LO:HP:t=cresc.	!	!	!LO:TX:b:t=cresc._ _ _:ext=ud:problem=dynamics with extention lines	!LO:HP:t=cresc._ _ _:ext=ud
2.E- 2.EE-/	4r	.	<	2.r	.	([2b-\	<
!	!	!LO:MO:mod=.	!	!	!	!	!
.	(4a- 4e- 4B-\	>	.	.	.	.	.
!	!	!LO:MO:mod=.	!	!	!	!	!
.	4g 4e- 4B-\)	]	.	.	.	8.b-\L]	.
.	.	.	.	.	.	16bn\Jk	.
*	*	*v	*v	*	*	*	*
*	*clefG2	*	*	*	*	*
=26	=26	=26	=26	=26	=26	=26
2.E- 2.EE-/	4r	.	2.r	.	[2cc\	.
!	!	!LO:MO:mod=.	!	!	!	!
.	(>4an 4e- 4B-/	>	.	.	.	.
!	!	!LO:MO:mod=[[	!	!	!	!
.	4g 4e- 4B-/)	]	.	.	8.cc\L]	.
.	.	.	.	.	16cc#X\Jk	.
=27	=27	=27	=27	=27	=27	=27
2.D 2.DD/	4r	f	4r	.	2dd\	.
.	(>4an 4e- 4B-/	.	4r	.	.	.
.	4g 4e- 4B-/)	.	[4dd\	.	[4ddd\	[ f
!	!	!	!LO:LB:g=original	!	!LO:LB:g=original	!
=28	=28	=28	=28	=28	=28	=28
2.C 2.CC/	4r	.	4dd\]	.	4ddd\]	<
.	(>4g 4d 4An/	.	4dd\	.	4ddd\	.
.	4f#X 4d 4A/)	.	4dd\	.	4ddd\)	[
*	*clefF4	*	*	*	*	*
!LO:LB:g=original	!LO:LB:g=original	!	!	!	!	!
=29	=29	=29	=29	=29	=29	=29
2.BBn 2.BBBn/	4r	.	(>2.dd^\	.	(2.ddd^\	.
.	(4d 4G\	.	.	.	.	.
.	4g 4d 4G\)	.	.	.	.	.
=30	=30	=30	=30	=30	=30	=30
*ped	*	*	*ped	*	*	*
2En 2EEn/	4r	<	4bn\	.	4bbn\	<
.	4Bn 4G\	.	4g/	.	4bn\	.
*Xped	*	*	*Xped	*	*	*
4E 4EE/	4c 4G\	[	4g/	.	4cc\	[
=31	=31	=31	=31	=31	=31	=31
4D 4DD/	4Bn 4G\	.	4d/)	.	4dd\)	.
*ped	*	*	*ped	*	*	*
2C 2CC^>/	2G^\	.	(<4f#X 4d^>/	.	(4ff#X 4dd^\	.
*Xped	*	*	*Xped	*	*	*
.	.	.	4en 4c/	.	4een 4cc\	.
=32	=32	=32	=32	=32	=32	=32
*ped	*	*	*ped	*	*	*
!	!	!LO:HP:t=dim.	!	!	!	!LO:HP:t=dim.
(4BBn 4BBBn/	(4G\	>	4d/	.	4dd 4g\	>
*ped	*	*	*ped	*	*	*
4En 4EEn/	4Bn 4G\	.	4en/	.	4g/	.
*ped	*	*	*ped	*	*	*
4D 4DD/)	4c 4An\	.	4f#X/)	.	4an/)	.
!LO:MO:mod=*Xped:null	!	!	!	!	!	!
*null	*	*	*	*	*	*
=33	=33	=33	=33	=33	=33	=33
.	.	.	.	.	(16qqg/LL	p
.	.	.	.	.	16qqan/JJ	>
[2.GG [2.GGG/	4Bn\)	p	2.r	.	(2.bn/)	.
.	(4d 4B^>\	>	.	.	.	.
.	8B 8G\)	]	.	.	.	.
.	8r	.	.	.	.	.
=34	=34	=34	=34	=34	=34	=34
2.GG_ 2.GGG/_	4r	.	2.r	.	2.g/)	.
.	(4en 4c^>\	>	.	.	.	]
.	8d 8Bn\)	]	.	.	.	.
.	8r	.	.	.	.	.
=35	=35	=35	=35	=35	=35	=35
!	!	!	!	!	!LO:MO:mod=!null:null	!
!	!	!	!	!	!LO:TX:b:i:t=1	!
2.GG] 2.GGG/]	4r	.	2.r	.	2.r	.
.	(4c 4An^>\	>	.	.	.	.
.	8Bn 8G\)	]	.	.	.	.
.	8r	.	.	.	.	.
!LO:PB:g=original	!LO:PB:g=original	!	!LO:PB:g=original	!	!LO:PB:g=original	!
=36	=36	=36	=36	=36	=36	=36
2.GG 2.GGG/	4r	.	4r	.	[>2g/	.
!	!LO:SIC:s=(4Bn 4G\^:v	!	!	!	!	!
.	(4Bn 4G\	>	4r	.	.	<
.	8c 8A-X\)	]	8.r	.	8.g\L]	.
.	8r	.	.	.	.	.
.	.	.	16g/	.	16gg\Jk	.
=37	=37	=37	=37	=37	=37	=37
!	!	!	!	!	!LO:MO:mod=!LO&colon;TX&colon;a&colon;B&colon;t=Un poco più animato	!
!	!	!	!	!	!LO:TX:a:B:t=Un poco più animato.	!
!	!LO:MO:mod=!LO&colon;TX&colon;a&colon;B&colon;t=Un poco più animato	!	!	!	!	!
!	!null	!	!	!	!	!
2.AA-X 2.AAA-X/	4r	.	(<[2g/	.	([2gg\	.
!	!LO:SIC:s=(4c 4A-\^:v	!	!	!	!	!
.	(4c 4A-\	>	.	.	.	.
.	8c#X 8An\)	]	8.g/L]	.	8.gg\L]	[ mf
.	8r	.	.	.	.	.
.	.	.	16f#X/Jk	.	16ff#X\Jk	.
=38	=38	=38	=38	=38	=38	=38
2.AAn 2.AAAn/	4r	.	[2fnX/	.	[2ffnX\	.
!	!LO:SIC:s=(4c#X 4An\^:v	!	!	!	!	!
.	(4c#X 4An\	>	.	.	.	.
.	8cn 8A-X\)	]	8.f/L]	.	8.ff\L]	.
.	8r	.	.	.	.	.
.	.	.	16en/Jk	.	16een\Jk	.
=39	=39	=39	=39	=39	=39	=39
[2.BB- [2.BBB-/	4r	.	4e-X'/)	.	4ee-X'\)	.
!	!	!	!LO:SIC:s=(<[2d/:v	!	!	!
.	4c 4A-^\	<	(<[2d^>/	.	([2dd\	.
.	4c-X 4A-\	[	.	.	.	.
=40	=40	=40	=40	=40	=40	=40
2.BB-] 2.BBB-/]	(4B- 4A-\	<	4d/]	.	4dd\]	<
.	4e- 4B- 4A-^\	.	4f/	.	4ff\	.
.	4d 4B- 4A-\)	[	4g/	.	4gg\	[
=41	=41	=41	=41	=41	=41	=41
*	*	*^	*	*	*	*
!	!	!	!	!	!	!LO:MO:mod=!null:null	!
!	!	!	!	!	!	!LO:TX:b:t=cresc._ _ _:ext=ud:problem=dynamics with extention lines	!LO:HP:t=cresc._ _ _:ext=ud
2.C 2.CC/	4r	.	.	[2b-/	.	[2bb-\	<
!	!LO:MO:mod=!null:null	!	!	!	!	!	!
!	!LO:TX:b:t=cresc._ _ _:ext=ud:problem=dynamics with extention lines	!	!LO:HP:t=cresc._ _ _:ext=ud	!	!	!	!
!	!	!LO:MO:mod=.	!	!	!	!	!
!	!LO:SIC:s=(4en 4c\^:v	!	!	!	!	!	!
.	(4en 4c\	>	<	.	.	.	.
!	!	!LO:MO:mod=.	!	!	!	!	!
.	8f 8d-X\)	]	.	8.b-/L]	.	8.bb-\L]	.
.	8r	.	.	.	.	.	.
.	.	.	.	16an/Jk	.	16aan\Jk	.
=42	=42	=42	=42	=42	=42	=42	=42
2.D-X 2.DD-X/	4r	.	.	[2a-X/	.	[2aa-X\	.
!	!	!LO:MO:mod=.	!	!	!	!	!
!	!LO:SIC:s=(4f 4d-X\^:v	!	!	!	!	!	!
.	(4f 4d-X\	>	.	.	.	.	.
!	!	!LO:MO:mod=.	!	!	!	!	!
.	8en 8c\)	]	.	8.a-/L]	.	8.aa-\L]	.
.	8r	.	.	.	.	.	.
.	.	.	[	16g/Jk)	.	16gg\Jk)	[
*	*	*v	*v	*	*	*	*
!LO:LB:g=original	!LO:LB:g=original	!	!LO:LB:g=original	!	!LO:LB:g=original	!
=43	=43	=43	=43	=43	=43	=43
[2.Dn [2.DDn/	4r	<	(2g/	.	(2gg\	<
.	(>4en 4c\	.	.	.	.	.
.	4e-X 4c\	.	[4f#X/	.	[4ff#X\	.
=44	=44	=44	=44	=44	=44	=44
2.D] 2.DD/]	4d 4c\	.	4f#/]	.	4ff#\]	.
.	4g 4d 4c\	[	4b-\	.	4bb-\	.
.	4f#X 4d 4c\)	.	4cc\)	.	4ccc\)	[
=45	=45	=45	=45	=45	=45	=45
!	!LO:MO:mod=!LO&colon;TX&colon;a&colon;B&colon;t=Sempre più animato	!	!	!	!LO:MO:mod=!LO&colon;TX&colon;a&colon;B&colon;t=Sempre più animato	!
!	!LO:TX:a:i:t=sempre più animato	!	!	!	!LO:TX:a:i:t=sempre più animato	!
!	!	!LO:MO:mod=f	!	!	!	!
2.BB- 2.BBB-/	4d 4G 4D\	f <	([2dd^\	.	([2ddd [2gg^\	f
!	!LO:TX:b:i:t=appassionato	!	!	!	!	!
!	!	!LO:MO:mod=.	!	!	!	!
.	4an 4An^\	[	.	.	.	.
!	!	!	!	!	!LO:TX:b:i:t=appassionato	!
.	4g 4G^\	.	8.dd\L]	.	8.ddd]L 8.gg\]	.
.	.	.	16cc\Jk	.	16ccc\Jk	.
=46	=46	=46	=46	=46	=46	=46
2.C 2.CC/	2c^\	<	4b-\	.	4bb- 4ee-\	.
.	.	.	4an/	.	4aan\	.
.	4e- 4E-\	[	4a-X/	.	4aa-X\	.
=47	=47	=47	=47	=47	=47	=47
[2.DD/	2e- 2E-^\	.	4g'/)	.	4gg 4cc'\)	.
.	.	.	([2f#X^>/	.	([2ff#X^\	.
.	4d 4D\	.	.	.	.	.
=48	=48	=48	=48	=48	=48	=48
2.DD/]	4c#X 4C#X\	.	4f#/]	.	4ff#\]	<
.	2d 2D^\	.	4b-\	.	4bb-\	.
.	.	.	4ccn\)	.	4cccn\)	[
=49	=49	=49	=49	=49	=49	=49
2.BB- 2.BBB-/	4d 4G 4D^\	<	([2dd^>\	.	([2ddd [2gg^\	.
.	4an 4An^\	[	.	.	.	.
.	4g 4G^\	.	8.dd\L]	.	8.ddd]L 8.gg\]	.
.	.	.	16cc\Jk	.	16ccc\Jk	.
=50	=50	=50	=50	=50	=50	=50
2.BB- 2.BBB-/	2c^\	.	4b-\	.	4bb- 4ee-\	.
.	.	.	4an/	.	4aan\	.
.	4e- 4E-\	.	4a-X/	.	4aa-X\	.
!LO:LB:g=original	!LO:LB:g=original	!	!LO:LB:g=original	!	!LO:LB:g=original	!
=51	=51	=51	=51	=51	=51	=51
[2.DD/	2e- 2E-^\	.	4g'/)	.	4gg 4cc'\)	.
.	.	.	([2f#X^>/	.	([2ff#X^\	.
.	4d 4D\	.	.	.	.	.
=52	=52	=52	=52	=52	=52	=52
2.DD/]	4c#X 4C#X\	.	4f#/]	.	4ff#\]	<
.	2d 2D^\	.	4b-\	.	4bb-\	.
.	.	.	4ccn\)	.	4cccn\)	[
=53	=53	=53	=53	=53	=53	=53
2.BB- 2.BBB-/	4d 4G 4D\	.	(2dd 2g^>\	.	(2ddd 2gg^\	.
.	4e- 4E-^\	.	.	.	.	.
.	4d 4D\	.	4b-\	.	4bb-\	.
=54	=54	=54	=54	=54	=54	=54
2.C 2.CC/	2d 2B- 2F#X 2D^\	.	4f#X/	.	4ff#X\	<
.	.	.	4b-\	.	4bb-\	.
.	4d 4c 4F# 4D\	.	4cc\)	.	4ccc\)	[
=55	=55	=55	=55	=55	=55	=55
2.BB- 2.BBB-/	4d 4G 4D\	.	(2dd 2g^\	.	(2ddd 2gg^\	.
.	4e- 4E-^\	.	.	.	.	.
.	4d 4D\	.	4b-\	.	4bb-\	.
=56	=56	=56	=56	=56	=56	=56
2.C 2.CC/	2d 2B- 2F#X 2D^\	.	4f#X/	.	4ff#X\	<
.	.	.	4b-\	.	4bb-\	.
.	4d 4c 4F# 4D\	.	4cc\)	.	4ccc\)	[
=57	=57	=57	=57	=57	=57	=57
!	!	!LO:DY:t=sempre più f	!	!	!	!
!	!	!	!	!	!	!LO:DY:t=sempre più f
!	!	!LO:DY:t= :mod=%s	!	!	!	!
!	!	!LO:MO:mod=!LO&colon;DY&colon;ed=brack	!	!	!	!
!	!	!null	!	!	!	!
2.BB- 2.BBB-/	4r	f	(2dd^\	.	(2ddd 2gg^\	f
.	(4an 4d 4An^\	.	.	.	.	.
.	4g 4G\)	.	4b-\)	.	4bb-\)	.
=58	=58	=58	=58	=58	=58	=58
!	!	!	!	!	!	!LO:DY:b
2.BB- 2.BBB-/	4r	.	(2dd^\	.	(2ddd 2gg^\	.
.	(4g 4d 4G^\	.	.	.	.	.
.	4f#X 4F#X\)	.	4b-\)	.	4bb-\)	.
!LO:LB:g=original	!LO:LB:g=original	!	!	!	!	!
=59	=59	=59	=59	=59	=59	=59
2.BB- 2.BBB-/	4r	.	(2dd^\	.	(2ddd 2gg^\	.
.	(4f#X 4d 4F#X^\	.	.	.	.	.
.	4fn 4Fn\)	.	4b-\)	.	4bb-\)	.
!	!	!	!LO:LB:g=original	!	!LO:LB:g=original	!
=60	=60	=60	=60	=60	=60	=60
4BB- 4BBB-^>/	4d 4B- 4D^>\	.	4dd 4b-^\	.	4ddd 4bb-^\	<
4GG 4GGG^>/	4e- 4B- 4E-^>\	.	4ee- 4b-^\	.	4eee- 4bb-^\	.
4GG-X 4GGG-X^>/	4en 4B- 4En^>\	.	4een 4b-^\	.	4eeen 4bb-^\	[
=61	=61	=61	=61	=61	=61	=61
!	!LO:MO:mod=!null:null	!	!	!	!	!
!	!LO:TX:b:i:t=marcatissimo	!	!	!	!	!
2FF 2FFF^>/	2f 2B- 2F^>\	ff	2ff 2b-^\	.	2fff 2bb-^\	ff
!	!	!	!	!	!LO:TX:b:i:t=marcatissimo	!
!	!LO:TX:a:B:t=Molto animato.	!	!	!	!LO:TX:a:B:t=Molto animato.	!
!	!LO:MO:mod=!LO&colon;TX&colon;b&colon;i&colon;t=marcatissimo	!	!	!	!	!
!	!null	!	!	!	!	!
!	!LO:SIC:s=4en 4G 4En\^:v	!	!LO:SIC:s=4een 4b-\^:v	!	!LO:SIC:s=4eeen 4bb-\^:v	!
4GGn 4GGGn/	4en 4G 4En\	.	4een 4b-\	.	4eeen 4bb-\	.
=62	=62	=62	=62	=62	=62	=62
!	!	!	!LO:SIC:s=4ee-X 4cc\^:v	!	!LO:SIC:s=4eee-X 4ccc\^:v	!
2.AA- 2.AAA-/	4e-X 4G 4E-X^>\	.	4ee-X 4cc\	.	4eee-X 4ccc\	.
!	!	!	!LO:SIC:s=4dd 4a-\^:v	!	!LO:SIC:s=4ddd 4aa-\^:v	!
.	4e- 4d 4A- 4E-^>\	.	4dd 4a-\	.	4ddd 4aa-\	.
!	!	!	!LO:SIC:s=4dd-X 4a-\^:v	!	!LO:SIC:s=4ddd-X 4aa-\^:v	!
.	4e- 4d-X 4A- 4E-^>\	.	4dd-X 4a-\	.	4ddd-X 4aa-\	.
=63	=63	=63	=63	=63	=63	=63
2.AAn 2.AAAn/	2dn 2c 2F#X^>\	.	2cc 2f#X^>/	.	2ccc 2ff#X^\	.
!	!	!	!LO:SIC:s=4bn/^:v	!	!LO:SIC:s=4bbn\^:v	!
.	4d 4Bn^>\	.	4bn/	.	4bbn\	.
=64	=64	=64	=64	=64	=64	=64
!	!	!	!LO:SIC:s=4b-X 4g/^:v	!	!LO:SIC:s=4bb-X 4gg\^:v	!
2.BB- 2.BBB-/	4d 4B-^>\	.	4b-X 4g/	.	4bb-X 4gg\	.
!	!	!	!LO:SIC:s=4d 4An^>\:v	!	!LO:SIC:s=4aan\^:v	!
.	4d 4An^>\	.	4an/	.	4aan\	.
!	!	!	!LO:SIC:s=4a-X/^:v	!	!LO:SIC:s=4aa-X\^:v	!
.	4d 4A-X^>\	.	4a-X/	.	4aa-X\	.
=65	=65	=65	=65	=65	=65	=65
!	!LO:SIC:s=2d 2G\^:v	!	!	!	!	!
2.BBn 2.BBBn/	2d 2G\	.	2g^>/	.	2gg 2dd^\	.
!	!	!	!	!	!LO:SIC:s=4ff#X\^:v	!
.	4f#X^>\	.	4g^>/	.	4ff#X\	.
=66	=66	=66	=66	=66	=66	=66
!	!	!	!	!	!LO:SIC:s=4ffn 4cc\^:v	!
2.C 2.CC/	4fn 4c 4G^>\	.	4g^>/	.	4ffn 4cc\	.
!	!	!	!	!	!LO:SIC:s=4een\^:v	!
.	4en^>\	.	4g^>/	.	4een\	.
!	!	!	!	!	!LO:SIC:s=4ee-X\^:v	!
.	4e-X^>\	.	4g^>/	.	4ee-X\	.
!LO:LB:g=original	!LO:LB:g=original	!	!LO:LB:g=original	!	!LO:LB:g=original	!
=67	=67	=67	=67	=67	=67	=67
*	*^	*	*	*	*	*
2.D 2.DD/	2d^/	2.F#X\	.	2.f#X^>/	.	2dd^>\	.
.	4c#X/	.	.	.	.	4cc#X\	.
*	*v	*v	*	*	*	*	*
=68	=68	=68	=68	=68	=68	=68
[2.E- [2.EE-/	4cn 4G\	.	2g/	.	4ccn\	.
.	4B-\	.	.	.	4b-\	.
.	4An\	.	4r	.	4an/	.
=69	=69	=69	=69	=69	=69	=69
(<2E-] 2EE-/]	(2B- 2G\	.	[2.g [2.e-^>/	.	2.r	.
4D 4DD/	4d\	.	.	.	.	.
=70	=70	=70	=70	=70	=70	=70
!	!LO:MO:mod=!null:null	!	!	!	!LO:MO:mod=!null:null	!
!	!LO:TX:b:t=dim._ _ _:ext=ud:problem=dynamics with extention lines	!LO:HP:t=dim._ _ _:ext=ud	!	!	!LO:TX:b:t=dim._ _ _:ext=ud:problem=dynamics with extention lines	!LO:HP:t=dim._ _ _:ext=ud
2C 2CC/	2c\	>	4g] 4e-/]	.	4r	>
.	.	.	(>4g N4e-/	.	4r	.
4BB- 4BBB-/)	4B-\)	.	4g 4d/	.	4dd\N)	.
=71	=71	=71	=71	=71	=71	=71
(<2E- 2EE-/	(2B- 2G\	.	[2.g [2.e-^>/	.	2.r	.
4D 4DD/	4d\	.	.	.	.	.
=72	=72	=72	=72	=72	=72	=72
2C 2CC/	2c\	.	4g] 4e-/]	.	4r	.
.	.	.	(>4g N4e-/	.	4r	.
4BB- 4BBB-/)	4B-\)	.	4g 4d/	.	4dd\N)	]
=73	=73	=73	=73	=73	=73	=73
*ped	*	*	*ped	*	*	*
(2.AAn 2.AAAn/	(2.An\	] p	(2.en/	.	(2.een 2.cc#X\	p <
=74	=74	=74	=74	=74	=74	=74
*ped	*	*	*ped	*	*	*
2.BB- 2.BBB-/	2.B-\	.	2.g 2.d/	.	2.gg 2.dd\	.
=75	=75	=75	=75	=75	=75	=75
*ped	*	*	*ped	*	*	*
2.C 2.CC/	2.c\)	.	2.b- 2.e-X/	.	2.bb- 2.ee-X\	[[
!LO:LB:g=original	!LO:LB:g=original	!	!LO:LB:g=original	!	!LO:LB:g=original	!
=76	=76	=76	=76	=76	=76	=76
*ped	*	*	*ped	*	*	*
[2.D [2.DD^>/)	2.c^\	.	2.b- 2.f#X 2.e-^>/	.	2.bb- 2.ff#X 2.ee- 2.cc^\	.
=77	=77	=77	=77	=77	=77	=77
*Xped	*	*	*ped	*	*	*
2D] 2DD/]	2B-\	.	2.g 2.d/)	.	2.gg 2.dd 2.b-\)	.
*ped	*	*	*	*	*	*
!	!	!	!LO:MO:mod=*Xped:null	!	!	!
*	*	*	*null	*	*	*
[4GG [4GGG/	[4G\	.	.	.	.	.
=78	=78	=78	=78	=78	=78	=78
2GG] 2GGG/]	2G\]	.	(>2.b- 2.f#X 2.e- 2.c^>/	.	(2.bb- 2.ff#X 2.ee- 2.cc^\	>
*ped	*	*	*	*	*	*
[4DD/	[4D\	.	.	.	.	.
=79	=79	=79	=79	=79	=79	=79
2DD/]	2D\]	.	2.g 2.d 2.B-/)	.	2.gg 2.dd 2.b-\)	.
*ped	*	*	*	*	*	*
[4GG [4GGG/	[4G\	.	.	.	.	]
=80	=80	=80	=80	=80	=80	=80
2GG] 2GGG/]	2G\]	.	(>2.b- 2.f#X 2.e- 2.c^>/	.	(2.bb- 2.ff#X 2.ee- 2.cc^\	>
*ped	*	*	*	*	*	*
[4DD/	[4D\	.	.	.	.	.
=81	=81	=81	=81	=81	=81	=81
2DD/]	2D\]	.	2.g 2.d 2.B-/)	.	2.gg 2.dd 2.b-\)	.
*ped	*	*	*	*	*	*
[4GG [4GGG/	[4G\	pp	.	.	.	]
=82	=82	=82	=82	=82	=82	=82
2.GG_ 2.GGG/_	2.G\_	.	[>2.g [>2.d [<2.B-^>/	.	[>2.bb- [>2.gg [<2.dd [<2.b-^\	pp
=83	=83	=83	=83	=83	=83	=83
2GG] 2GGG/]	2G\]	.	2.g_> 2.d_> 2.B-/_<	.	2.bb-_> 2.gg_> 2.dd_< 2.b-\_<	.
(4GG 4GGG/	(4G\	.	.	.	.	.
=84	=84	=84	=84	=84	=84	=84
2FF 2FFF/	2F\	.	4g] 4d] 4B-/]	.	4bb-] 4gg] 4dd] 4b-\]	.
.	.	.	4r	.	4r	.
4GG 4GGG/	4G\	.	4r	.	4r	.
*Xped	*	*	*	*	*	*
!LO:PB:g=original	!LO:PB:g=original	!	!LO:PB:g=original	!	!LO:PB:g=original	!
=85||	=85||	=85||	=85||	=85||	=85||	=85||
*ped	*	*	*	*	*	*
!	!LO:MO:mod=!LO&colon;TX&colon;a&colon;B&colon;t=Tranquillo	!	!	!	!LO:MO:mod=!LO&colon;TX&colon;a&colon;B&colon;t=Tranquillo	!
!	!LO:TX:a:B:t=Tranquillo.	!	!	!	!LO:TX:a:B:t=Tranquillo.	!
[2.BB- [2.EE-/)	4B- 4E-\)	pp	4r	.	4r	.
*	*clefG2	*	*	*	*	*
*	*	*	*ped	*	*8va	*
.	(4.b- 4.e-^>/	.	[2bb- [2ee-^\	.	(4.bbb- 4.eee-\	pp
.	8g/	.	.	.	8ggg\	.
=86	=86	=86	=86	=86	=86	=86
2.BB-_ 2.EE-/_	8e-/L	.	4bb-] 4ee-\]	.	8eee-\L	.
.	8f/	.	.	.	8fff\	.
.	8g/	.	4r	.	8ggg\	.
.	8e-/	.	.	.	8eee-\	.
.	8c/	.	4r	.	8ccc\	.
.	8d/J	.	.	.	8ddd\J	.
*	*	*	*	*	*X8va	*
=87	=87	=87	=87	=87	=87	=87
2.BB-_ 2.EE-/_	8e-/L	.	2.r	.	8eee-\L	.
.	8c/	.	.	.	8ccc\	.
.	8B-/	.	.	.	8bb-\	.
.	8G/	.	.	.	8gg\	.
.	8B-/	.	.	.	8bb-\	.
.	8c/J	.	.	.	8ccc\J	.
=88	=88	=88	=88	=88	=88	=88
2BB-] 2EE-/]	8B-/L)	.	2.r	.	8bb-\L)	.
.	16r	.	.	.	16r	.
.	(16c/Jk	.	.	.	(16ccc\Jk	.
*Xped	*	*	*	*	*	*
.	4e-'/)	.	.	.	2eee-^\)	.
*	*	*	*Xped	*	*	*
4AA- 4AAA-'/	4e- 4c-X 4F'/	.	.	.	.	.
=89	=89	=89	=89	=89	=89	=89
*ped	*	*	*	*	*	*
4EE- 4EEE-'/	4e- 4B- 4G'/	.	4r	.	4r	.
*	*	*	*ped	*	*8va	*
4r	(4.b- 4.e-^>/	.	(4.bb- 4.ee-^\	.	(4.bbb- 4.eee-^\	.
4r	.	.	.	.	.	.
.	8g/	.	8gg\	.	8ggg\	.
=90	=90	=90	=90	=90	=90	=90
2.r	8e-/L	.	8ee-\L	.	8eee-\L	.
.	8f/	.	8ff\	.	8fff\	.
.	8g/	.	8gg\	.	8ggg\	.
.	8e-/	.	8ee-\	.	8eee-\	.
.	8c/	.	8cc\	.	8ccc\	.
.	8d/J	.	8dd\J	.	8ddd\J	.
*	*	*	*	*	*X8va	*
=91	=91	=91	=91	=91	=91	=91
2.r	8e-/L	.	8ee-\L	.	8eee-\L	.
.	8c/	.	8cc\	.	8ccc\	.
.	8B-/	.	8b-\	.	8bb-\	.
.	8G/	.	8g\	.	8gg\	.
.	8B-/	.	8b-\	.	8bb-\	.
.	8c/J	.	8cc\J	.	8ccc\J	.
!LO:LB:g=original	!LO:LB:g=original	!	!LO:LB:g=original	!	!LO:LB:g=original	!
=92	=92	=92	=92	=92	=92	=92
4r	8B-/L)	.	8b-\L)	.	8bb-\L)	.
.	16r	.	16r	.	16r	.
.	(16c/Jk	.	(16cc\Jk	.	(16ccc\Jk	.
*Xped	*	*	*Xped	*	*	*
4r	4e-'/)	.	2ee-^\)	.	2eee-^\)	.
4AA- 4AAA-/	4e- 4c-X 4F'/	.	.	.	.	.
=93	=93	=93	=93	=93	=93	=93
*ped	*	*	*	*	*	*
[>2.EE- [<2.EEE-/	(<8.B-L 8.G/	<	4r	.	2.r	.
.	16e-/Jk	.	.	.	.	.
*	*	*	*ped	*	*	*
.	4f/	.	N(8g\L	.	.	.
.	.	.	8b-\	.	.	.
.	4e-/	[[	8cc\	.	.	.
.	.	.	8ee-\J	.	.	.
=94	=94	=94	=94	=94	=94	=94
2.EE-] 2.EEE-/]	2b-^>/	>	8gg\	.	8r	.
.	.	.	8r	.	8bb-\L	.
.	.	.	4r	.	8ccc\	.
.	.	.	.	.	8eee-\	.
.	4e-/)	]	4r	.	8ggg\	.
*Xped	*	*	*Xped	*	*	*
.	.	.	.	.	8bbb-\JN)	.
=95	=95	=95	=95	=95	=95	=95
*ped	*	*	*ped	*	*8va	*
[2.DD#X [2.DDD#X/	8.r	.	(2.aan 2.dd#X 2.bn 2.an\	.	(>2.bbbn 2.fff#X 2.ddd#X 2.bbn\	>
.	(16BnKL 16An/	<	.	.	.	.
.	8c#X'/)	.	.	.	.	.
.	16r	.	.	.	.	.
.	(16d#X/L	.	.	.	.	.
.	16en'/J)	.	.	.	.	.
.	16r	.	.	.	.	.
*Xped	*	*	*Xped	*	*	*
.	(>8f#X/J	[	.	.	.	.
=96	=96	=96	=96	=96	=96	=96
*ped	*	*	*	*	*	*
2.EE-X] 2.EEE-X/]	8gL 8B-X 8G'/)	>	2.ggn 2.ee-X 2.b-X\)	.	2.bbb-X 2.eee-X 2.bb-X\)	.
.	16r	.	.	.	.	.
.	16e-X/K	.	.	.	.	]
.	8cn'/	.	.	.	.	.
.	16r	.	.	.	.	.
.	16e-/Jk	.	.	.	.	.
*Xped	*	*	*	*	*	*
!	!LO:TX:a:i:t=ten.	!	!	!	!	!
.	4B-/	]	.	.	.	.
*	*	*	*	*	*X8va	*
=97	=97	=97	=97	=97	=97	=97
*ped	*	*	*	*	*	*
[2.EE- [2.EEE-/	(8.B-L 8.G/	<	4r	.	2.r	.
.	16e-/Jk	.	.	.	.	.
*	*	*	*ped	*	*	*
.	4f/	.	N&(8g\L	.	.	.
.	.	.	8b-\	.	.	.
.	4e-/	.	8cc\	.	.	.
.	.	.	8ee-\J	.	.	.
=98	=98	=98	=98	=98	=98	=98
2.EE-] 2.EEE-/]	2b-^>/	[ >	8gg\	.	8r	.
.	.	.	8r	.	8bb-\L	.
.	.	.	4r	.	8ccc\	.
.	.	.	.	.	8eee-\	.
.	4e-/)	]	4r	.	8ggg\	.
*Xped	*	*	*Xped	*	*	*
.	.	.	.	.	8bbb-\JN&)	.
*	*clefF4	*	*	*	*	*
!LO:LB:g=original	!LO:LB:g=original	!	!LO:LB:g=original	!	!LO:LB:g=original	!
=99	=99	=99	=99	=99	=99	=99
*ped	*	*	*ped	*	*8va	*
[2.DD#X [2.DDD#X/	8.r	.	(2.aan 2.dd#X 2.bn 2.an\	.	(2.bbbn 2.fff#X 2.ddd#X 2.bbn\	>
.	(16BnKL 16An\	<	.	.	.	.
.	8c#X'\)	.	.	.	.	.
.	16r	.	.	.	.	.
.	(16d#X\K	.	.	.	.	.
.	8en'\)	.	.	.	.	.
*Xped	*	*	*Xped	*	*	*
.	16r	.	.	.	.	.
.	(16f#X\Jk	[	.	.	.	.
=100	=100	=100	=100	=100	=100	=100
*ped	*	*	*ped	*	*	*
2.EE-] 2.EEE-/]	8gL 8B-X 8G'\)	>	2.ggn 2.ee-X 2.b-X\)	.	2.bbb-X 2.eee-X 2.bb-X\)	.
.	16r	.	.	.	.	.
.	(16e-X\K	.	.	.	.	]
.	8cn'\)	.	.	.	.	.
.	16r	.	.	.	.	.
.	(16e-\Jk	.	.	.	.	.
!	!LO:TX:a:i:t=ten.	!	!	!	!	!
*Xped	*	*	*Xped	*	*	*
.	4B-\)	]	.	.	.	.
*	*	*	*	*	*X8va	*
=101	=101	=101	=101	=101	=101	=101
[2.BB- [2.BBB-^>/	2.e- 2.B- 2.F^\	p	(>8a-X/L	.	(8aa-XL 8ee-\	p
!	!	!	!	!	!LO:TX:b:i:t=grazioso	!
.	.	.	8b-/J	.	8b-\J	.
.	.	.	4cc'\)	.	4ccc'\)	.
.	.	.	4a-'/	.	4aa-'\	.
=102	=102	=102	=102	=102	=102	=102
!	!LO:TX:b:i:t=grazioso	!	!	!	!	!
8.BB-]L 8.BBB-/]	8.e-L 8.B- 8.F\	.	2b- 2f^>/	.	2ff 2ee-^>\	.
(16C/Jk	(16c\Jk	.	.	.	.	.
4BB-'/)	4B-'\)	.	.	.	.	.
4BB-'/	4e- 4B- 4G'\	.	4b- 4g/	.	4gg 4ee-\	.
=103	=103	=103	=103	=103	=103	=103
[2.BB- [2.BBB-^>/	2.e- 2.B- 2.F^\	.	(>8a-/L	.	(>8aa-L 8ee-\	.
.	.	.	8b-/J	.	8b-\J	.
.	.	.	4cc'\)	.	4ccc'\)	.
.	.	.	4a-'/	.	4aa-'\	.
=104	=104	=104	=104	=104	=104	=104
8.BB-]L 8.BBB-/]	8.e-L 8.B- 8.F\	.	2b- 2f^>/	.	2ff 2ee-^\	.
(16C/Jk	(16c\Jk	.	.	.	.	.
4BB-'/)	4B-'\)	.	.	.	.	.
4BB-'/	4e- 4B- 4G'\	.	4b- 4g/	.	4gg 4ee-\	.
=105	=105	=105	=105	=105	=105	=105
[2.BB- [2.BBB-^>/	2.e- 2.B- 2.F^\	.	(>8a-/L	.	(8aa-L 8ee-\	.
.	.	.	8b-/J	.	8b-\J	.
.	.	.	4cc'\)	.	4ccc'\)	.
.	.	.	4a-'/	.	4aa-'\	.
=106	=106	=106	=106	=106	=106	=106
2BB-] 2BBB-/]	4e- 4B- 4A-\	<	4b- 4f/	.	4ff 4ee-\	<
.	4e- 4B- 4A-\	.	4b- 4g/	.	4gg 4ee-\	.
4BB- 4BBB-/	4d 4B- 4A-\	[	4b- 4a-/	.	4aa- 4dd\	[
!LO:LB:g=original	!LO:LB:g=original	!	!	!	!	!
=107	=107	=107	=107	=107	=107	=107
2G 2GG/	(8fL 8B-^\	.	2b-^>\	.	(8bb-L 8ff^>\	.
.	8e-\J)	.	.	.	8ee-\J)	.
.	4e-'\	.	.	.	4ee-'\	.
4F 4FF/	4d-X 4A-'\	.	4a-/	.	4aa- 4dd-X'\	.
!	!	!	!LO:LB:g=original	!	!LO:LB:g=original	!
=108	=108	=108	=108	=108	=108	=108
2En 2EEn^>/	(8d-XL 8G^\	.	2g^>/	.	(8ggL 8dd-X^\	.
.	8c\J)	.	.	.	8cc\J)	.
.	4c'\	.	.	.	4cc'\	.
4E-X 4EE-X/	4c 4An'\	.	4f/	.	4gg 4cc'\	.
=109	=109	=109	=109	=109	=109	=109
2.D 2.DD/	2.dn 2.B- 2.F\	.	(8f/L	.	(8ff\L	.
.	.	.	8g/J	.	8gg\J	.
.	.	.	4b-'/)	.	4bb-'\)	.
.	.	.	4g'/	.	4gg'\	.
=110	=110	=110	=110	=110	=110	=110
2E- 2EE-^>/	(8dL 8An^\	.	(2f^>/	.	(2ff^\	.
.	8c\J)	.	.	.	.	.
.	4c'\	.	.	.	.	.
4E- 4EE-/	4c 4A'\	.	4g/)	.	4gg\)	.
=111	=111	=111	=111	=111	=111	=111
2.D 2.DD/	2.d 2.B- 2.F\	.	(8f/L	.	(8fffL 8ff\	.
.	.	.	8g/J	.	8gggJ 8gg\	.
.	.	.	4b-'/)	.	4bbb- 4bb-'\)	.
.	.	.	4g'/	.	4ggg 4gg'\	.
=112	=112	=112	=112	=112	=112	=112
2E- 2EE-^>/	(8dL 8An^\	.	(2f^>/	.	(2fff 2ff^\	.
.	8c\J)	.	.	.	.	.
.	4c'\	.	.	.	.	.
4E- 4EE-/	4c 4A'\	.	4g/)	.	4ggg 4gg\)	.
=113	=113	=113	=113	=113	=113	=113
2.D 2.DD/	2.d 2.B- 2.F\	.	(8f/L	.	(8ff\L	.
.	.	.	8g/J	.	8gg\J	.
.	.	.	4b-'/)	.	4bb-'\)	.
.	.	.	4g'/	.	4gg'\	.
=114	=114	=114	=114	=114	=114	=114
2C 2CC/	4e- 4B- 4F\	<	4f/	.	4ff 4ee-\	<
.	4e- 4B- 4F\	.	4g/	.	4gg 4ee-\	.
4C 4CC/	4e- 4An 4F\	[	4an/	.	4aan 4ee-\	[
=115	=115	=115	=115	=115	=115	=115
!LO:SIC:s=2G 2GG/^:v	!	!	!	!	!	!
2G 2GG/	(8fL 8B-^\	.	2b-^>/	.	(8bb-L 8ff^\	.
.	8e-\J)	.	.	.	8ee-\J)	.
.	4e-'\	.	.	.	4ee-'\	.
4E- 4EE-/	4c 4An'\	.	4g/	.	4gg 4cc'\	.
!LO:LB:g=original	!LO:LB:g=original	!	!LO:LB:g=original	!	!LO:LB:g=original	!
=116	=116	=116	=116	=116	=116	=116
!LO:SIC:s=2D 2DD/^:v	!	!	!	!	!	!
2D 2DD/	(8cL 8F^\	.	2f^>/	.	(8ffL 8cc^>\	.
.	8B-\J)	.	.	.	8b-\J)	.
.	4B-'\	.	.	.	4b-'\	.
4C 4CC/	4An 4F#X'\	.	4e-/	.	4ee- 4an'\	.
=117	=117	=117	=117	=117	=117	=117
!	!	!	!	!	!	!LO:HP:b:t=cresc.
2.C 2.CC/	2.An 2.F#X\	.	(8d/L	.	(8dd\L	<
.	.	.	8e-/J	.	8ee-\J	.
.	.	.	4f'/)	.	4ff'\)	.
.	.	.	4e-'/	.	4ee-'\	.
=118	=118	=118	=118	=118	=118	=118
2.BB- 2.BBB-/	(4G 4D\	<	(2d^>/	.	(2dd^>\	.
.	4An^\	[	.	.	.	.
.	4G\)	.	4g/)	.	4gg\)	.
=119	=119	=119	=119	=119	=119	=119
!	!LO:MO:mod=!null:null	!	!	!	!	!
!	!LO:TX:b:t=cresc._ _ _:ext=ud:problem=dynamics with extention lines	!LO:HP:t=cresc._ _ _:ext=ud	!	!	!	!
2.C 2.CC/	2.An 2.F#X\	<	(8d/L	.	(8dd\L	.
.	.	.	8e-/J	.	8ee-\J	.
.	.	.	4f'/)	.	4ff'\)	.
.	.	.	4e-'/	.	4ee-'\	.
=120	=120	=120	=120	=120	=120	=120
2.BB- 2.BBB-/	(4G 4D\	.	(2d^>/	.	(2dd^>\	.
.	4An^\	.	.	.	.	.
.	4G\)	.	4g/)	.	4gg\)	.
=121	=121	=121	=121	=121	=121	=121
2.C 2.CC/	2.An 2.F#X\	.	(8d/L	.	(8dd\L	f
.	.	.	8e-/J	.	8ee-\J	.
.	.	.	4f'/)	.	4ff'\)	.
.	.	.	4e-'/	.	4ee-'\	.
=122	=122	=122	=122	=122	=122	=122
2.BB- 2.BBB-/	(4G 4D\	.	2d/	.	2dd\	.
.	4An^\	.	.	.	.	.
.	4G\)	[	[4dd\	.	[4ddd\	<
=123	=123	=123	=123	=123	=123	=123
4An^>\	4g 4c#X^>\	ff >	4dd\]	.	4ddd\]	.
4A-X^>\	4f#X 4cn^>\	.	4dd^>\	.	4ddd^>\	.
4G^>\	4fn 4Bn^>\	.	4dd^>\	.	4ddd^>\	.
=124	=124	=124	=124	=124	=124	=124
!	!LO:TX:b:i:t=poco rit.	!	!	!	!	!
4G-X\	4en 4B-X\	.	4dd^>\	.	4ddd^>\	.
4F\	4e-X 4An\	.	4dd^>\	.	4ddd^>\	.
4En;>\	4d 4A-X;>\	]	4dd^>;>\	.	4ddd^;>\	[
!LO:PB:g=original	!LO:PB:g=original	!	!LO:PB:g=original	!	!LO:PB:g=original	!
=125||	=125||	=125||	=125||	=125||	=125||	=125||
*k[f#c#g#]	*k[f#c#g#]	*	*k[f#c#g#]	*	*k[f#c#g#]	*
!	!LO:MO:mod=!LO&colon;TX&colon;a&colon;B&colon;t=A tempo	!	!	!	!	!
!	!LO:TX:a:i:t=a tempo	!	!	!	!	!
!	!	!	!	!	!LO:MO:mod=!LO&colon;TX&colon;a&colon;B&colon;t=A tempo	!
!	!	!	!	!	!null	!
4AA 4AAA/	4r	p	(8b\L	.	(8bb\L	p
.	.	.	8cc#\J	.	8ccc#\J	.
4r	4d 4G# 4E\	.	4dd'\)	.	4ddd'\)	.
4r	4e 4d 4G#\	.	4b'\	.	4bb'\	.
=126	=126	=126	=126	=126	=126	=126
4AA 4AAA/	4r	.	(2cc#^\	.	(2ccc#^\	.
4r	4c# 4A 4E\	.	.	.	.	.
4r	4e 4c# 4A\	.	4ee\)	.	4eee\)	.
=127	=127	=127	=127	=127	=127	=127
4AA 4AAA/	4r	.	(8b\L	.	(8bb\L	.
.	.	.	8cc#\J	.	8ccc#\J	.
4r	4d 4G# 4E\	.	4dd'\)	.	4ddd'\)	.
4r	4e 4d 4G#\	.	4b'\	.	4bb'\	.
=128	=128	=128	=128	=128	=128	=128
4AA 4AAA/	4r	.	(2cc#^\	.	(2ccc#^\	.
4r	4c# 4A 4E\	.	.	.	.	.
4r	4e 4c# 4A\	.	4ee\)	.	4eee\)	.
=129	=129	=129	=129	=129	=129	=129
*ped	*	*	*ped	*	*8va	*
[2.AA [2.AAA/	4r	<	(8ff#L 8dd\	.	(8fff#L 8ddd\	<
.	.	.	8gg#J 8ee\	.	8ggg#J 8eee\	.
.	4d 4A 4F#\	.	4aa 4ff#'\)	.	4aaa 4fff#'\)	.
.	4f# 4d 4A\	.	4ff# 4dd'\	.	4fff# 4ddd'\	[[
=130	=130	=130	=130	=130	=130	=130
2.AA] 2.AAA/]	4r	.	[4bb [4gg#^\	.	[4bbb [4ggg#^\	.
.	4f# 4d 4A\	.	8.bb]L 8.gg#\]	.	8.bbb]L 8.ggg#\]	.
.	.	.	16aaJk 16ff#\	.	16aaaJk 16fff#\	.
*Xped	*	*	*Xped	*	*	*
.	4a 4f# 4d\	[	4aa 4ff#\	.	4aaa 4fff#\	.
=131	=131	=131	=131	=131	=131	=131
*ped	*	*	*ped	*	*	*
[2.AA [2.AAA/	4r	>	[4ff# [4dd^\	.	[4fff# [4ddd^\	>
.	4e 4d 4G#\	.	8.ff#]L 8.dd\]	.	8.fff#]L 8.ddd\]	.
.	.	.	16ddJk 16b\	.	16dddJk 16bb\	.
.	4d 4G# 4E\	.	4dd 4b\	.	4ddd 4bb\	.
!LO:LB:g=original	!LO:LB:g=original	!	!	!	!	!
=132	=132	=132	=132	=132	=132	=132
2.AA] 2.AAA/]	4r	.	[4b [4g#^>/	.	[4bb [4gg#^>/	.
!	!LO:MO:mod=!LO&colon;TX&colon;b&colon;i&colon;t=rit.	!	!	!	!LO:MO:mod=!LO&colon;TX&colon;b&colon;i&colon;t=rit.	!
!	!LO:TX:b:i:t=poco.rit.	!	!	!	!LO:TX:a:i:t=poco rit.	!
.	4e 4d 4G#\	.	8.b]L 8.g#\]	.	8.bb]L 8.gg#\]	.
.	.	.	16gg#Jk 16ee\	.	16ggg#Jk 16eee\	.
*Xped	*	*	*Xped	*	*	*
.	4d 4G# 4E\	]	4ff# 4dd\	.	4fff# 4ddd\	]
*	*	*	*	*	*X8va	*
!	!	!	!LO:LB:g=original	!	!LO:LB:g=original	!
=133	=133	=133	=133	=133	=133	=133
!	!LO:MO:mod=!LO&colon;TX&colon;a&colon;B&colon;t=A tempo	!	!	!	!LO:MO:mod=!LO&colon;TX&colon;a&colon;B&colon;t=A tempo	!
!	!LO:TX:a:i:t=a tempo	!	!	!	!LO:TX:a:i:t=a tempo	!
4AA 4AAA/	4r	p	(8b\L	.	(8bb\L	p
.	.	.	8cc#\J	.	8ccc#\J	.
4r	(4f# 4d 4G#^<\	>	4dd'\)	.	4ddd'\)	.
4r	4e 4d 4G# 4E\)	]	4b'\	.	4bb'\	.
=134	=134	=134	=134	=134	=134	=134
4AA 4AAA/	4r	.	(2cc#^>\	.	(2ccc#^\	.
4r	(4f# 4c# 4A^>\	>	.	.	.	.
4r	4e 4c# 4A 4E\)	]	4ee\)	.	4eee\)	.
=135	=135	=135	=135	=135	=135	=135
4AA 4AAA/	4r	.	(8b\L	.	(8bb\L	.
.	.	.	8cc#\J	.	8ccc#\J	.
4r	(4f# 4d 4G#^\	>	4dd'\)	.	4ddd'\)	.
4r	4e 4d 4G# 4E\)	]	4b'\	.	4bb'\	.
=136	=136	=136	=136	=136	=136	=136
4AA 4AAA/	4r	.	(2cc#^>\	.	(2ccc#^\	.
4r	(4f# 4c# 4A\	>	.	.	.	.
4r	4e 4c# 4A 4E\)	]	4ee\)	.	4eee\)	.
=137	=137	=137	=137	=137	=137	=137
*ped	*	*	*ped	*	*8va	*
!	!	!	!	!	!	!LO:HP:t=cresc.
[2.AA [2.AAA/	4r	f	(8ff#L 8dd\	.	(8fff#L 8ddd\	<
.	.	.	8gg#J 8ee\	.	8ggg#J 8eee\	.
.	4d 4A 4F#\	.	4aa 4ff#'\)	.	4aaa 4fff#'\)	.
.	4f# 4d 4A\	.	4ff# 4dd'\	.	4fff# 4ddd'\	.
=138	=138	=138	=138	=138	=138	=138
2.AA] 2.AAA/]	4r	.	[4bb [4gg#^\	.	[4bbb [4ggg#^\	.
.	4f# 4d 4A\	.	8.bb]L 8.gg#\]	.	8.bbb]L 8.ggg#\]	.
.	.	.	16aaJk 16ff#\	.	16aaaJk 16fff#\	.
*Xped	*	*	*Xped	*	*	*
.	4a 4f# 4d\	.	4aa 4ff#\	.	4aaa 4fff#\	.
!LO:LB:g=original	!LO:LB:g=original	!	!	!	!	!
=139	=139	=139	=139	=139	=139	=139
4C# 4CC#/	4r	.	[4ccc# [4aa^\	.	[4cccc# [4aaa^\	f
4r	4e#X 4c# 4A\	.	8.ccc#]L 8.aa\]	.	8.cccc#]L 8.aaa\]	.
.	.	.	16aaJk 16ee#X\	.	16aaaJk 16eee#X\	.
4r	4a 4e# 4c#\	.	4aa 4ee#\	.	4aaa 4eee#\	.
=140	=140	=140	=140	=140	=140	=140
4D 4DD/	4r	.	[4gg# [4een^\	.	[4ggg# [4eeen^\	.
4r	4f# 4d 4A\	.	8.gg#]L 8.ee\]	.	8.ggg#]L 8.eee\]	.
.	.	.	16ff#Jk 16dd\	.	16fff#Jk 16ddd\	.
4r	4a 4f# 4d\	.	4ff# 4dd\	.	4fff# 4ddd\	.
*	*	*	*	*	*X8va	*
!	!	!	!LO:LB:g=original	!	!LO:LB:g=original	!
=141	=141	=141	=141	=141	=141	=141
*ped	*	*	*ped	*	*8va	*
[2.D [2.DD/	4r	.	(8ff#L 8dd\	.	(8fff#L 8ddd\	.
.	.	.	8gg#J 8ee\	.	8ggg#J 8eee\	.
.	4f# 4d 4A\	.	4aa 4ff#'\)	.	4aaa 4fff#'\)	.
.	4a 4f# 4d\	.	4ff# 4dd'\	.	4fff# 4ddd'\	.
=142	=142	=142	=142	=142	=142	=142
2.D] 2.DD/]	4r	.	[4bb [4gg#^\	.	[4bbb [4ggg#^\	<
.	4f# 4d 4A\	.	8.bb]L 8.gg#\]	.	8.bbb]L 8.ggg#\]	.
.	.	.	16aaJk 16ff#\	.	16aaaJk 16fff#\	.
*Xped	*	*	*Xped	*	*	*
.	4a 4f# 4d\	.	4aa 4ff#\	.	4aaa 4fff#\	[
=143	=143	=143	=143	=143	=143	=143
!	!LO:MO:mod=!null:null	!	!	!	!	!
!	!LO:TX:b:t=dim._ _ _:ext=ud:problem=dynamics with extention lines	!LO:HP:t=dim._ _ _:ext=ud	!	!	!	!
4C# 4CC#/	4r	>	[4ccc# [4aa^\	.	[4cccc# [4aaa^\	.
4r	4e#X 4c# 4A\	.	8.ccc#]L 8.aa\]	.	8.cccc#]L 8.aaa\]	.
.	.	.	16aaJk 16ee#X\	.	16aaaJk 16eee#X\	.
4r	4a 4e# 4c#\	.	4aa 4ee#\	.	4aaa 4eee#\	.
=144	=144	=144	=144	=144	=144	=144
4D 4DD/	4r	.	[4gg# [4een^\	.	[4ggg# [4eeen^\	.
4r	4f# 4d 4A\	.	8.gg#]L 8.ee\]	.	8.ggg#]L 8.eee\]	.
.	.	.	16ff#Jk 16dd\	.	16fff#Jk 16ddd\	.
4r	4a 4f# 4d\	.	4ff# 4dd\	.	4fff# 4ddd\	.
*	*	*	*	*	*X8va	*
=145	=145	=145	=145	=145	=145	=145
4C# 4CC#/	4r	.	[4cc# [4a^>/	.	[4ccc# [4aa^\	.
4r	4c# 4A\	.	8.cc#]L 8.a/]	.	8.ccc#]L 8.aa\]	.
.	.	.	16a/Jk	.	16aaJk 16ee#X\	.
4r	4e#X 4c#\	.	4a/	.	4aa 4ee#\	.
=146	=146	=146	=146	=146	=146	=146
4D 4DD/	4r	.	[4g#^>/	.	[4gg# [4een^\	.
4r	4A 4F#\	.	8.g#/L]	.	8.gg#]L 8.ee\]	.
.	.	.	16f#/Jk	.	16ff#Jk 16dd\	.
4r	4d 4A\	.	4f#/	.	4ff# 4dd\	.
!LO:LB:g=original	!LO:LB:g=original	!	!	!	!	!
=147	=147	=147	=147	=147	=147	=147
!	!	!	!	!	!	!LO:HP:t=dim.
4C# 4CC#/	4r	.	[4cc# [4a/	.	2.r	>
4r	4A 4E#X\	.	8.cc#]L 8.a/]	.	.	.
.	.	.	16aJk 16e#X/	.	.	.
4r	4c# 4A\	.	4a 4e#/	.	.	.
!	!	!	!LO:LB:g=original	!	!LO:LB:g=original	!
=148	=148	=148	=148	=148	=148	=148
4D 4DD/	4r	.	[4g# [4en/	.	2.r	.
4r	4F# 4D\	.	8.g#]L 8.e/]	.	.	.
.	.	.	16f#Jk 16d/	.	.	.
4r	4A 4F#\	.	4f# 4d/	.	.	.
=149	=149	=149	=149	=149	=149	=149
!	!	!	!	!	!	!LO:MO:mod=pp ]
4r	4r	.	2.r	.	([4g# [4e/	p
4AA 4DD/	4F# 4D\	] pp	.	.	8.g#]L 8.e/]	.
.	.	.	.	.	16f#Jk 16d/)	.
4r	4r	.	.	.	4f# 4d/	.
=150	=150	=150	=150	=150	=150	=150
4r	4r	.	2.r	.	([4b [4g#/	.
4AA 4DD/	4F# 4D\	.	.	.	8.b]L 8.g#/]	.
.	.	.	.	.	16aJk 16f#/)	.
4r	4r	.	.	.	4a 4f#/	.
=151	=151	=151	=151	=151	=151	=151
4r	4r	.	([4g# [4e/	.	2.r	.
4AA 4DD/	4F# 4D\	.	8.g#]L 8.e/]	.	.	.
.	.	.	16f#Jk 16d/)	.	.	.
4r	4r	.	4f# 4d/	.	.	.
=152	=152	=152	=152	=152	=152	=152
4r	4r	.	2.r	.	([4b [4g#/	.
4D#X 4DD#X/	4cn 4F#\	.	.	.	8.b]L 8.g#/]	.
.	.	.	.	.	16aJk 16f#/)	.
4r	4r	.	.	.	4a 4f#/	.
=153	=153	=153	=153	=153	=153	=153
*	*	*	*ped	*	*	*
4r	4r	.	[2.B#X/	.	[2.g# [2.f#/	pp
4r	4r	.	.	.	.	.
*ped	*	*	*	*	*	*
4D#X 4DD#X/	4F#\	.	.	.	.	.
=154	=154	=154	=154	=154	=154	=154
!	!LO:MO:mod=!null:null	!	!	!	!	!
!	!LO:TX:b:t=1	!	!	!	!	!
2.r	2.r	.	2.B#/]	.	2.g#] 2.f#/]	.
!LO:LB:g=original	!LO:LB:g=original	!	!	!	!	!
!!Xignore
=155	=155	=155	=155	=155	=155	=155
4r	4r	.	[2.B#X/	.	[2.g# [2.f#/	.
4r	4r	.	.	.	.	.
!LO:MO:mod=*ped:null	!	!	!	!	!	!
*null	*	*	*	*	*	*
4D#X 4DD#X/	4F#\	.	.	.	.	.
=156	=156	=156	=156	=156	=156	=156
2.r;>	2.r;>	.	2.B#;>/]	.	2.g#] 2.f#;>/]	.
!LO:MO:mod=*null:null	!	!	!	!	!	!
*Xped	*	*	*Xped	*	*	*
!	!	!	!LO:LB:g=original	!	!LO:LB:g=original	!
=157	=157	=157	=157	=157	=157	=157
!	!	!	!	!	!LO:TX:b:i:t=espressivo	!
!	!LO:MO:mod=!LO&colon;TX&colon;a&colon;B&colon;t=Più lento	!	!	!	!LO:MO:mod=!LO&colon;TX&colon;a&colon;B&colon;t=Più lento	!
!	!LO:TX:a:B:t=Più lento.	!	!	!	!LO:TX:a:B:t=Più lento.	!
4r	2.r	.	4r	.	(>2g#/	p
!	!	!	!	!	!	!LO:DY:b=2
[2Dn [2DDn/	.	pp	2f# 2cn/	.	.	pp
.	.	.	.	.	4a/	.
=158	=158	=158	=158	=158	=158	=158
4D] 4DD/]	2.r	.	4r	.	2b\	<
[2D [2DD/	.	.	2f# 2cn/	.	.	.
.	.	.	.	.	4ccn\	.
=159	=159	=159	=159	=159	=159	=159
4D] 4DD/]	2.r	.	4r	.	2cc#X\	.
(2D 2DD/	.	<	(<2gn 2d 2B/	.	.	.
.	.	.	.	.	[4dd\	[
=160	=160	=160	=160	=160	=160	=160
2.C#X 2.CC#X/)	2.r	[	2.gn 2.e-X 2.B-X^/)	.	4dd\]	>
.	.	.	.	.	4ffn\	.
.	.	.	.	.	4ee-X\)	]
=161	=161	=161	=161	=161	=161	=161
4r	2.r	.	4r	.	(2g#X/	<
[2D [2DD/	.	.	2f# 2cn/	.	.	.
.	.	.	.	.	4a/	.
=162	=162	=162	=162	=162	=162	=162
4D] 4DD/]	2.r	.	4r	.	2b\	.
[2D [2DD/	.	.	2f# 2cn/	.	.	.
.	.	.	.	.	4ccn\	.
=163	=163	=163	=163	=163	=163	=163
4D] 4DD/]	2.r	<[	4r	.	2cc#X\	.
[2D [2DD/	.	.	(2gn 2d 2B/	.	.	.
.	.	.	.	.	[4dd\	[
=164	=164	=164	=164	=164	=164	=164
2.D] 2.DD/]	2.r	.	2.gn 2.e-X 2.B-X^>/)	.	4dd\]	>
.	.	.	.	.	4ffn\	.
.	.	.	.	.	4ee-X\)	]
!LO:PB:g=original	!LO:PB:g=original	!	!LO:PB:g=original	!	!LO:PB:g=original	!
=165	=165	=165	=165	=165	=165	=165
!	!LO:TX:b:t=cresc._ _ _:ext=ud:problem=dynamics with extention lines	!LO:HP:t=cresc._ _ _:ext=ud	!	!	!	!LO:HP:t=cresc.
4r	2.r	<	4r	.	(2g#X/	<
2D 2DD/	.	.	2f# 2cn/	.	.	.
.	.	.	.	.	4a/	[
=166	=166	=166	=166	=166	=166	=166
4r	2.r	.	4r	.	2b\	.
[2Cn [2CCn/	.	.	2f# 2d/	.	.	.
.	.	.	.	.	4ccn\	.
=167	=167	=167	=167	=167	=167	=167
4C] 4CC/]	2.r	.	4r	.	2cc#X\	.
(2BB 2BBB/	.	[ <	2gn 2d/	.	.	.
.	.	.	.	.	[4dd\	.
=168	=168	=168	=168	=168	=168	=168
*	*	*	*ped	*	*	*
2.Cn 2.CCn^>/)	2.r	[	2.a- 2.e-/	.	4dd\]	.
.	.	.	.	.	4ffn\	.
.	.	.	.	.	4ee-X\	.
=169	=169	=169	=169	=169	=169	=169
!	!LO:TX:b:t=15	!	!	!	!LO:TX:b:i:t=quasi recitativo	!
2.r	2.r	.	2.r	.	4ggn\	f <
.	.	.	.	.	4bb-X\	.
.	.	.	.	.	4aa-X\	[
=170	=170	=170	=170	=170	=170	=170
2.r	2.r	.	2.r	.	4eeen\	.
.	.	.	.	.	4ggn\	.
.	.	.	.	.	4bb-X\	.
=171	=171	=171	=171	=171	=171	=171
!	!	!	!	!	!	!LO:HP:t=sempre dim.
2.r	2.r	.	2.r	.	4aa-X\	>
.	.	.	.	.	4dd\	.
.	.	.	.	.	4ffn\	.
=172	=172	=172	=172	=172	=172	=172
2.r	2.r	.	2.r	.	4ee-X\	.
*	*	*	*Xped	*	*	*
.	.	.	.	.	4ccn\	.
.	.	.	.	.	[4gn/)	.
!LO:LB:g=original	!LO:LB:g=original	!	!LO:LB:g=original	!	!LO:LB:g=original	!
=173	=173	=173	=173	=173	=173	=173
2.r	2.r	.	2.r	.	4g/]	<
.	.	.	.	.	N&(4b-X\	.
.	.	.	.	.	4a-X/	[
=174	=174	=174	=174	=174	=174	=174
2.r	2.r	.	2.r	.	4ccn\	.
.	.	.	.	.	4gn/	.
.	.	.	.	.	4b-X\	.
=175	=175	=175	=175	=175	=175	=175
2.r	2.r	.	4r	.	4a-X/	.
.	.	.	4d/	.	4r	.
.	.	.	4fn/	.	4r	.
=176	=176	=176	=176	=176	=176	=176
2.r	2.r	.	4e-X/	.	2.r	.
.	.	.	4cn/	.	.	.
.	.	.	[4Gn/N&)	.	.	.
=177	=177	=177	=177	=177	=177	=177
2.r	2.r	.	4G/]	.	2.r	.
.	.	.	(4B-X/	.	.	.
.	.	.	4A-X/	.	.	.
=178	=178	=178	=178	=178	=178	=178
2.r	2.r	.	4cn/	.	2.r	.
.	.	.	4Gn/)	.	.	.
.	.	.	[4B-X/	.	.	.
=179	=179	=179	=179	=179	=179	=179
2.r	2.r	.	4B-/]	.	2.r	<[
.	.	.	(4B-X/	.	.	.
.	.	.	4A-X/	.	.	.
=180	=180	=180	=180	=180	=180	=180
2.r	2.r	.	4cn/	.	2.r	>]
.	.	.	4Gn/)	.	.	.
.	.	.	[4B-X/	.	.	.
!	!	!	!LO:LB:g=original	!	!LO:LB:g=original	!
=181	=181	=181	=181	=181	=181	=181
2.r	2.r	.	4B-/]	.	2.r	<
.	.	.	(4B-X/	.	.	.
.	.	.	4A-X/	.	.	.
=182	=182	=182	=182	=182	=182	=182
2.r	2.r	.	4cn/	.	2.r	.
.	.	.	4d/	.	.	.
.	.	.	4fn/	.	.	[
=183	=183	=183	=183	=183	=183	=183
2.r	2.r	.	2e-X/	.	2.r	>
.	.	.	[4fn/)	.	.	.
=184	=184	=184	=184	=184	=184	=184
2.r;>	2.r;>	.	2f/]	.	2.r;>	]]
.	.	.	4f#X;>/	.	.	.
!LO:LB:g=original	!LO:LB:g=original	!	!	!	!	!
=185||	=185||	=185||	=185||	=185||	=185||	=185||
*k[b-e-a-]	*k[b-e-a-]	*	*k[b-e-a-]	*	*k[b-e-a-]	*
!	!LO:MO:mod=!LO&colon;TX&colon;a&colon;B&colon;t=Tempo I	!	!	!	!	!
!	!LO:TX:a:B:t=Tempo I.	!	!	!	!LO:TX:b:i:t=molto espressivo	!
!	!	!	!	!	!LO:MO:mod=!LO&colon;TX&colon;a&colon;B&colon;t=Tempo I	!
!	!	!	!	!	!LO:TX:a:B:t=Tempo I.	!
!	!	!	!	!	!	!LO:MO:mod=pp
[2.GG [2.GGG/	4r	pp	2.r	.	([2g/	p
.	(4e- 4c 4G\	.	.	.	.	.
.	4c 4G 4E-\)	.	.	.	8.g/L]	.
.	.	.	.	.	16a-/Jk	.
=186	=186	=186	=186	=186	=186	=186
2.GG] 2.GGG/]	4r	.	2.r	.	[2an/	.
.	(4e- 4c 4G\	.	.	.	.	.
.	4c 4G 4E-\)	.	.	.	8.a/L]	.
.	.	.	.	.	16b-/Jk	.
=187	=187	=187	=187	=187	=187	=187
2.GG 2.GGG/	4r	.	2.r	.	2bn\	<
.	(4f 4d 4A-\	.	.	.	.	.
.	4d 4A- 4F\)	.	.	.	[4aa-\	[
!	!	!	!LO:LB:g=original	!	!LO:LB:g=original	!
=188	=188	=188	=188	=188	=188	=188
!	!	!	!	!	!LO:MO:mod=!LO&colon;TX&colon;b&colon;i&colon;t=rit.	!
!	!	!	!	!	!LO:TX:b:i:t=poco rit.	!
2.GG 2.GGG/	4r	.	2.r	.	8aa-\L]	>
.	.	.	.	.	8gg\	.
!	!LO:MO:mod=!LO&colon;TX&colon;b&colon;i&colon;t=rit.	!	!	!	!	!
!	!LO:TX:b:i:t=poco rit.	!	!	!	!	!
.	(4d 4A- 4F\	.	.	.	8ff\	.
.	.	.	.	.	8dd\	.
.	4f 4d 4A-\)	.	.	.	8bn~\	.
.	.	.	.	.	8a-\J)	]
=189	=189	=189	=189	=189	=189	=189
!	!LO:TX:a:i:t=a tempo	!	!	!	!LO:TX:a:i:t=a tempo	!
[2.GG [2.GGG/	4r	.	2.r	.	([2g/	<
.	(4f 4c 4G\	.	.	.	.	.
.	4e- 4c 4G\)	.	.	.	8.g/L]	.
.	.	.	.	.	16a-/Jk	.
=190	=190	=190	=190	=190	=190	=190
2.GG] 2.GGG/]	4r	.	2.r	.	[2an/	.
.	(4g 4e- 4c\	.	.	.	.	.
.	4e- 4c 4G\)	.	.	.	8.a/L]	.
.	.	.	.	.	16b-/Jk	.
!LO:LB:g=original	!LO:LB:g=original	!	!	!	!	!
=191	=191	=191	=191	=191	=191	=191
2.FF 2.FFF/	4r	.	2.r	.	2cc\	.
.	(4a- 4e- 4c\	.	.	.	.	.
.	4e- 4c 4F\)	.	.	.	[4bb-^\	[
=192	=192	=192	=192	=192	=192	=192
*^	*	*	*	*	*	*
4r	2.BB- 2.BBB-\	4r	.	2.r;>	.	8bb-\L]	>
.	.	.	.	.	.	8aa-\	.
2F;>/	.	(4.a- 4.e- 4.c;>\	>	.	.	8ff\	.
.	.	.	.	.	.	8cc\	.
.	.	.	.	.	.	8ee-;>\	.
.	.	8d\)	]	.	.	8dd\J)	]
*v	*v	*	*	*	*	*	*
=193	=193	=193	=193	=193	=193	=193
!	!	!	!	!	!LO:MO:mod=!null:null	!
!	!	!	!	!	!LO:TX:b:t=cresc._ _ _:ext=ud:problem=dynamics with extention lines	!LO:HP:t=cresc._ _ _:ext=ud
2.E- 2.EE-/	4r	.	2.r	.	([2b-\	<
.	(4a- 4e- 4B-\	.	.	.	.	.
.	4g 4e- 4B-\)	.	.	.	8.b-\L]	.
.	.	.	.	.	16bn\Jk	.
*	*clefG2	*	*	*	*	*
=194	=194	=194	=194	=194	=194	=194
2.E- 2.EE-/	4r	.	2.r	.	[2cc\	.
.	4an 4e- [4B-/	.	.	.	.	.
.	4g 4e- 4B-/]	.	.	.	8.cc\L]	.
.	.	.	.	.	16cc#X\Jk	.
=195	=195	=195	=195	=195	=195	=195
2.D 2.DD/	4r	<	4r	.	2dd\	.
.	4an 4e- 4B-/	.	4r	.	.	.
.	4g 4e- 4B-/	[	([4dd\	.	[4ddd\	[
!	!	!	!LO:LB:g=original	!	!LO:LB:g=original	!
=196	=196	=196	=196	=196	=196	=196
2.C 2.CC/	4r	<	4dd\]	.	4ddd\]	<
.	4g 4d 4An/	.	4dd\	.	4ddd\	.
.	4f#X 4d 4A/	[	4dd\	.	4ddd\)	.
*	*clefF4	*	*	*	*	*
!LO:LB:g=original	!LO:LB:g=original	!	!	!	!	!
=197	=197	=197	=197	=197	=197	=197
[2.BB- [2.BBB-/	4r	f	2.dd^>\	.	(2.ddd^\	[[
.	4g 4d 4B-\	.	.	.	.	.
.	4d 4B- 4G\	.	.	.	.	.
=198	=198	=198	=198	=198	=198	=198
!	!LO:MO:mod=!null:null	!	!	!	!LO:MO:mod=!null:null	!
!	!LO:TX:b:t=dim._ _ _:ext=ud:problem=dynamics with extention lines	!LO:HP:t=dim._ _ _:ext=ud	!	!	!LO:TX:b:t=dim._ _ _:ext=ud:problem=dynamics with extention lines	!LO:HP:t=dim._ _ _:ext=ud
2.BB-] 2.BBB-/]	4r	>	4b-\)	.	4bb-\	>
.	4fn 4d 4B-\	.	2r	.	[4dd\	.
.	4d 4A- 4F\	.	.	.	8.dd\L]	.
.	.	.	.	.	16ee-\Jk	.
=199	=199	=199	=199	=199	=199	=199
2.AAn 2.AAAn/	4r	.	2.r	.	2.ff\	.
.	4f 4d 4An\	.	.	.	.	.
.	4d 4A 4F\	.	.	.	.	.
=200	=200	=200	=200	=200	=200	=200
2.GG 2.GGG/	4r	.	2.r	.	4dd\	.
.	4d 4Bn 4G\	.	.	.	[4f/	.
!	!	!	!	!	!	!LO:MO:mod=]]
.	4B 4G 4F\	.	.	.	8.f/L]	]
.	.	]	.	.	16f#X/Jk)	.
=201	=201	=201	=201	=201	=201	=201
*	*	*^	*	*	*	*
!	!LO:TX:b:i:t=il canto ben marcato	!	!	!	!	!	!
!	!	!LO:MO:mod=.	!	!	!	!	!
4C 4CC/	[2.e-\	mf	p	2.r	.	([2g/	p <
4c 4G\	.	.	.	.	.	.	.
4c 4G 4E-\	.	.	.	.	.	8.g/L]	.
.	.	.	.	.	.	16a-/Jk	.
*	*	*v	*v	*	*	*	*
=202	=202	=202	=202	=202	=202	=202
4r	4e-\]	.	2.r	.	[2an/	.
4e- 4c 4G\	4r	.	.	.	.	.
4c 4G 4E-\	(4e-\	.	.	.	8.a/L]	.
.	.	.	.	.	16b-/Jk	.
=203	=203	=203	=203	=203	=203	=203
4C 4CC/	2d\	.	2.r	.	2bn\	.
4A- 4F\	.	.	.	.	.	.
4A- 4F\	[4c\)	.	.	.	[4aa-^\	[[
!LO:LB:g=original	!LO:LB:g=original	!	!LO:LB:g=original	!	!LO:LB:g=original	!
=204	=204	=204	=204	=204	=204	=204
!	!LO:TX:b:i:t=poco rit.	!	!	!	!	!
!	!	!	!	!	!LO:MO:mod=!LO&colon;TX&colon;b&colon;i&colon;t=poco rit.	!
!	!	!	!	!	!null	!
4C 4CC/	(4c\]	.	2.r	.	8aa-\L]	>
.	.	.	.	.	8gg\	.
4A- 4C\	4Bn\	.	.	.	8ff\	.
!	!	!	!	!	!LO:MO:mod=!null:null	!
!	!	!	!	!	!LO:TX:b:i:t=poco rit.	!
.	.	.	.	.	8dd\	.
4d 4A-\	4f\)	.	.	.	8bn~\	.
.	.	.	.	.	8a-\J)	]
=205	=205	=205	=205	=205	=205	=205
!	!LO:TX:a:i:t=a tempo	!	!	!	!LO:TX:a:i:t=a tempo	!
4C 4CC/	(2f\	.	2.r	.	([2g/	<
4c 4G\	.	.	.	.	.	.
4c 4G\	[4e-\)	.	.	.	8.g/L]	.
.	.	.	.	.	16a-/Jk	.
=206	=206	=206	=206	=206	=206	=206
4r	4e-\]	.	2.r	.	[2an/	.
!	!LO:TX:b:i:t=m.d.	!	!	!	!	!
4r>	4g< 4e-< 4c<\	.	.	.	.	.
4c 4G\	(4e-\	.	.	.	8.a/L]	.
.	.	.	.	.	16b-/Jk	.
=207	=207	=207	=207	=207	=207	=207
4BB- 4DD/	4e-\	<	2.r	.	2cc\	.
4e- 4c\	4a-\	.	.	.	.	.
4c 4F\	4e-\	[	.	.	[4bb-^>\	[[
=208	=208	=208	=208	=208	=208	=208
!	!LO:TX:b:i:t=poco rit.	!	!	!	!	!
!	!	!	!	!	!LO:MO:mod=!LO&colon;TX&colon;b&colon;i&colon;t=poco rit.	!
!	!	!	!	!	!null	!
4BB- 4BBB-/	[4a-\	>	4r	.	8bb-\L]	>
.	.	.	.	.	8aa-\	.
!	!	!	!	!	!LO:MO:mod=!null:null	!
!	!	!	!	!	!LO:TX:b:i:t=poco rit.	!
4.e- 4.A- 4.F\	8a-\L]	.	4r	.	8ff\	.
.	[8a-\J	.	.	.	8cc\	.
!	!	!LO:MO:mod=]]	!	!	!	!
.	4a-\])	]	&(4cc-X^\	.	8ee-~\	.
8d\	.	.	.	.	8dd\J)	]
=209	=209	=209	=209	=209	=209	=209
!	!LO:TX:a:i:t=a tempo	!	!	!	!LO:TX:a:i:t=a tempo	!LO:HP:t=cresc.
4E- 4EE-/	(2a-\	.	N&&(>[2b-\	.	4r	<
4e- 4B-\	.	.	.	.	4r	.
4e- 4B- 4G\	[4g\)	.	8.b-\]&)	.	8.r	.
.	.	.	16r	.	16bn\	.
=210	=210	=210	=210	=210	=210	=210
*	*	*^	*	*	*	*
!	!	!	!LO:MO:mod=.	!	!	!	!
4E- 4EE-/	(4g\]	<	<	2.r	.	[2cc\	.
*	*clefG2	*	*	*	*	*	*
4e- 4B-\	4an/	.	.	.	.	.	.
4e- 4B- 4G\	4b-\	[	.	.	.	8.cc\L]	.
.	.	.	.	.	.	16cc#X\Jk	.
*	*	*v	*v	*	*	*	*
!LO:PB:g=original	!LO:PB:g=original	!	!LO:PB:g=original	!	!LO:PB:g=original	!
=211	=211	=211	=211	=211	=211	=211
4DD/	4b-/	f	4r	.	2dd\	f
4d 4B-\	4an/	.	4r	.	.	.
4d 4B-\	4g/	.	[4dd\	.	[4ddd\	.
=212	=212	=212	=212	=212	=212	=212
*	*^	*	*	*	*	*
2.C 2.CC/	2g^>/	4r	.	4dd\]	.	4ddd\]	.
.	.	4d 4An\	.	4dd\	.	4ddd\	.
.	4f#X/	4d 4A\	.	4dd\	.	4ddd\N&&)	.
=213	=213	=213	=213	=213	=213	=213	=213
!	!	!	!	!	!	!LO:TX:b:i:t=molto espressivo	!
2.BBn 2.BBBn/	2g/)	4r	.	(2.dd^\	.	(>2.ddd^\	.
.	.	4d 4G\	.	.	.	.	.
.	4g/	4d 4G\	.	.	.	.	.
*	*v	*v	*	*	*	*	*
*	*clefF4	*	*	*	*	*
=214	=214	=214	=214	=214	=214	=214
2En 2EEn/	4r	.	4bn\	.	4bbn\	.
.	4Bn 4G\	.	4g/	.	4bn\	<
4E 4EE/	4c 4G\	.	4g/	.	4cc\	.
=215	=215	=215	=215	=215	=215	=215
4D 4DD/	4Bn 4G\	.	4d/)	.	4dd\)	.
2C 2CC^>/	2G^>\	.	(4f#X 4d^>/	.	(>4ff#X 4dd^\	[
.	.	.	4en 4c/	.	4een 4cc\	.
=216	=216	=216	=216	=216	=216	=216
!	!	!LO:HP:t=dim.	!	!	!	!LO:HP:t=dim.
4BBn 4BBBn/	4G\	>	4d/	.	4dd 4g\	>
4En 4EEn/	4Bn 4G\	.	4en/	.	4g/	.
4D 4DD/	4c 4An\	.	4f#X/)	.	4an/)	.
=217	=217	=217	=217	=217	=217	=217
.	.	.	.	.	(<16qqg/LL	p >
.	.	.	.	.	16qqan/JJ	.
[2.GG [2.GGG/	4Bn\	>	2.r	.	(<2.bn/)	.
.	(4d 4B^>\	.	.	.	.	.
.	4B 4G\)	]	.	.	.	.
=218	=218	=218	=218	=218	=218	=218
2.GG_ 2.GGG/_	4r	>	2.r	.	2.g/)	]]
.	(4en 4c^>\	.	.	.	.	.
.	8d 8B-\)	]	.	.	.	.
.	8r	.	.	.	.	.
*	*clefG2	*	*	*	*	*
!LO:LB:g=original	!LO:LB:g=original	!	!	!	!	!
=219	=219	=219	=219	=219	=219	=219
!	!	!	!	!	!LO:MO:mod=!null:null	!
!	!	!	!	!	!LO:TX:b:t=1	!
2.GG] 2.GGG/]	4r	.	2.r	.	2.r	.
.	(4c 4An/	>	.	.	.	.
.	8Bn 8G/)	.	.	.	.	.
.	8r	]	.	.	.	.
!	!	!	!LO:LB:g=original	!	!LO:LB:g=original	!
=220	=220	=220	=220	=220	=220	=220
2.GG 2.GGG/	4r	.	4r	.	[2g/	<
.	(4Bn 4G/	>	4r	.	.	.
.	8c 8A-X/)	.	8.r	.	8.g\L]	.
.	8r	]	.	.	.	.
.	.	.	16g/	.	16gg\Jk	[[
=221	=221	=221	=221	=221	=221	=221
!	!LO:MO:mod=!LO&colon;TX&colon;a&colon;i&colon;t=poco a poco più animato	!	!	!	!	!
!	!LO:TX:a:i:t=Poco a poco più animato.	!	!	!	!	!
!	!	!	!	!	!LO:MO:mod=!LO&colon;TX&colon;a&colon;i&colon;t=poco a poco più animato	!
!	!	!	!	!	!null	!
2.AA-X 2.AAA-X/	4r	.	(<[2g/	.	(>[2gg\	mf
.	(4c 4A-/	>	.	.	.	.
!	!	!	!	!	!LO:TX:b:i:t=con dolore	!
!	!	!LO:MO:mod=]]	!	!	!	!
.	8c#X 8An/)	]	8.g/L]	.	8.gg\L]	.
.	8r	.	.	.	.	.
.	.	.	16f#X/Jk	.	16ff#X\Jk	.
=222	=222	=222	=222	=222	=222	=222
2.AAn 2.AAAn/	4r	.	[2fnX/	.	[2ffnX\	.
.	(4c#X 4An/	>	.	.	.	.
!	!	!LO:MO:mod=]]	!	!	!	!
.	8cn 8A-X/)	]	8.f/L]	.	8.ff\L]	.
.	8r	.	.	.	.	.
.	.	.	16en/Jk	.	16een\Jk	.
=223	=223	=223	=223	=223	=223	=223
[2.BB- [2.BBB-/	4r	.	4e-X'/)	.	4ee-X'\)	.
.	(4c 4A-/	<	[2d^>/	.	[2dd^>\	.
.	4c-X 4A-/	.	.	.	.	.
=224	=224	=224	=224	=224	=224	=224
!!LO:MO:ori
2.BB-] 2.BBB-/]	4B- 4A-^^>/	.	4b-^^> 4d/]	2	4dd\]	<
.	4g 4B- 4A-/	.	(<4f/	.	(>4ff\	.
.	4d 4B- 4A-/)	[	4g/	.	4gg\	[
!!LO:MO:end
!!LO:MO:mod
!! 2.BB-] 2.BBB-/]	4B- 4A-^^>/	.	4b-^^> 4d/]	.	4dd\]	<
!! .	4g 4B- 4A-/	.	(<4f/	.	(>4ff\	.
!! .	4d 4B- 4A-/)	[	4g/	.	4gg\	[
!!LO:MO:end
=225	=225	=225	=225	=225	=225	=225
*	*	*^	*	*	*	*
!	!	!	!	!	!	!LO:MO:mod=!null:null	!
!	!	!	!	!	!	!LO:TX:b:t=cresc._ _ _:ext=ud:problem=dynamics with extention lines	!LO:HP:t=cresc._ _ _:ext=ud
2.C 2.CC/	4r	.	.	[2b-/	.	[2bb-\	<
!	!	!	!LO:MO:mod=.	!	!	!	!
.	(4en 4c/	>	<	.	.	.	.
.	8f 8d-X/)	.	.	8.b-/L]	.	8.bb-\L]	.
.	8r	]	.	.	.	.	.
.	.	.	.	16an/Jk	.	16aan\Jk	.
*	*	*v	*v	*	*	*	*
=226	=226	=226	=226	=226	=226	=226
2.D-X 2.DD-X/	4r	.	[2a-X/	.	[2aa-X\	.
.	(4f 4d-X/	>	.	.	.	.
!	!	!LO:MO:mod=]]	!	!	!	!
.	8en 8c/)	]	8.a-/L]	.	8.aa-\L]	.
.	8r	.	.	.	.	.
.	.	.	16g/Jk)	.	16gg\Jk)	[
!LO:LB:g=original	!LO:LB:g=original	!	!	!	!	!
=227	=227	=227	=227	=227	=227	=227
[2.Dn [2.DDn/	4r	.	2g/	.	2gg\	<
.	(4en 4c/	<	.	.	.	.
.	4e-X 4c/	.	[4f#X/	.	[4ff#X\	.
!	!	!	!LO:LB:g=original	!	!LO:LB:g=original	!
=228	=228	=228	=228	=228	=228	=228
!!LO:MO:ori
2.D] 2.DD/]	4d 4c^^>/	.	4dd^^> 4f#/]	2	4ff#\]	.
.	4g 4d 4c/	.	4b-\	.	4bb-\	.
.	4f#X 4d 4c/)	[	4cc\	.	4ccc\	[
!!LO:MO:end
!!LO:MO:mod
!! 2.D] 2.DD/]	4d 4c^^>/	.	4dd^^> 4f#/]	.	4ff#\]	.
!! .	4g 4d 4c/	.	4b-\	.	4bb-\	.
!! .	4f#X 4d 4c/)	[	4cc\	.	4ccc\	[
!!LO:MO:end
*	*clefF4	*	*	*	*	*
=229	=229	=229	=229	=229	=229	=229
2.BB- 2.BBB-/	(4d 4G 4D\	f	([2dd^\	.	(>[2ddd [2gg^\	f
!	!LO:TX:b:i:t=appassionato	!	!	!	!	!
.	4an 4An\	.	.	.	.	.
!	!	!	!	!	!LO:TX:b:i:t=appassionato	!
.	4g 4G\	.	8.dd\L]	.	8.ddd]L 8.gg\]	.
.	.	.	16cc\Jk	.	16ccc\Jk	.
=230	=230	=230	=230	=230	=230	=230
2.C 2.CC/	2c\	.	4b-\	.	4bb- 4ee-\	.
.	.	.	4an/	.	4aan\	.
.	4e- 4E-\)	.	4a-X/	.	4aa-X\	.
=231	=231	=231	=231	=231	=231	=231
[2.DD/	(2e- 2E-^>\	.	4g'/)	.	4gg 4cc'\)	.
.	.	.	([2f#X^>/	.	(>[2ff#X^\	.
.	4d 4D\	.	.	.	.	.
=232	=232	=232	=232	=232	=232	=232
2.DD/]	4c#X 4C#X\	.	4f#/]	.	4ff#\]	<
.	2d 2D^>\)	.	4b-\	.	4bb-\	.
.	.	.	4ccn\)	.	4cccn\)	[
=233	=233	=233	=233	=233	=233	=233
2.BB- 2.BBB-/	(4d 4G 4D\	.	([2dd^\	.	(>[2ddd [2gg^\	.
.	4an 4An\	.	.	.	.	.
.	4g 4G\	.	8.dd\L]	.	8.ddd]L 8.gg\]	.
.	.	.	16cc\Jk	.	16ccc\Jk	.
=234	=234	=234	=234	=234	=234	=234
2.C 2.CC/	2c\	.	4b-/	.	4bb- 4ee-\	.
.	.	.	4an/	.	4aan\	.
.	4e- 4E-\)	.	4a-X/	.	4aa-X\	.
=235	=235	=235	=235	=235	=235	=235
[2.DD/	(2e- 2E-^>\	.	4g'/)	.	4gg 4cc'\)	.
.	.	.	([2f#X^>/	.	(>[2ff#X^\	.
.	4d 4D\	.	.	.	.	.
!LO:LB:g=original	!LO:LB:g=original	!	!LO:LB:g=original	!	!LO:LB:g=original	!
=236	=236	=236	=236	=236	=236	=236
2.DD/]	4c#X 4C#X\	.	4f#/]	.	4ff#\]	<
.	2d 2D^>\)	.	4b-\	.	4bb-\	.
.	.	.	4ccn\)	.	4cccn\)	[
=237	=237	=237	=237	=237	=237	=237
2.BB- 2.BBB-/	4d 4G 4D\	<	(2dd 2g^\	.	(>2ddd 2gg^\	.
.	4e- 4E-^>\	.	.	.	.	.
.	4d 4D\	[	4b-\	.	4bb-\	.
=238	=238	=238	=238	=238	=238	=238
2.C 2.CC/	2d 2B- 2F#X 2D^>\	.	4f#X/	.	4ff#X\	<
.	.	.	4b-\	.	4bb-\	.
.	4d 4c 4F# 4D\	.	4cc\)	.	4ccc\)	[
=239	=239	=239	=239	=239	=239	=239
2.BB- 2.BBB-/	4d 4G 4D\	<	(2dd 2g^\	.	(>2ddd 2gg^\	.
.	4e- 4E-^>\	.	.	.	.	.
.	4d 4D\	[	4b-\	.	4bb-\	.
=240	=240	=240	=240	=240	=240	=240
2.C 2.CC/	2d 2B- 2F#X 2D^>\	.	4f#X/	.	4ff#X\	<
.	.	.	4b-\	.	4bb-\	.
.	4d 4c 4F# 4D\	.	4cc\)	.	4ccc\)	[
=241	=241	=241	=241	=241	=241	=241
!	!	!LO:DY:t=sempre più f	!	!	!	!
!	!	!LO:DY:t= :mod=%s	!	!	!	!
!	!	!LO:MO:mod=!LO&colon;DY&colon;ed=brack	!	!	!	!
!	!	!null	!	!	!	!
!	!	!	!	!	!	!LO:DY:t=sempre più f
2.BB- 2.BBB-/	4r	f	(2dd^\	.	(2ddd 2gg^\	f
.	(4an 4d 4An^>\	>	.	.	.	.
.	8g 8G\)	]	4b-\)	.	4bb-\)	.
.	8r	.	.	.	.	.
=242	=242	=242	=242	=242	=242	=242
2.BB- 2.BBB-/	4r	.	(2dd^\	.	(2ddd 2bb-^\	.
.	(4g 4d 4G^>\	>	.	.	.	.
.	8f#X 8F#X\)	]	4b-\)	.	4bb-\)	.
.	8r	.	.	.	.	.
=243	=243	=243	=243	=243	=243	=243
2.BB- 2.BBB-/	4r	.	(2dd^\	.	(2ddd 2gg^\	.
.	(4f#X 4d 4F#X^>\	>	.	.	.	.
.	8fn 8Fn\)	]	4b-\)	.	4bb-\)	.
.	8r	.	.	.	.	.
!LO:LB:g=original	!LO:LB:g=original	!	!	!	!	!
=244	=244	=244	=244	=244	=244	=244
4BB- 4BBB-^>/	4d 4B- 4D^>\	.	4dd 4b-^>\	.	4ddd 4bb-^>\	<
4GG 4GGG^>/	4e- 4B- 4E-^>\	.	4ee- 4b-^>\	.	4eee- 4bb-^>\	.
4GG-X 4GGG-X^>/	4en 4B- 4En^>\	.	4een 4b-^>\	.	4eeen 4bb-^>\	[
!	!	!	!LO:LB:g=original	!	!LO:LB:g=original	!
=245	=245	=245	=245	=245	=245	=245
!	!LO:TX:a:B:t=Molto animato.	!	!	!	!LO:TX:a:B:t=Molto animato.	!
!	!	!	!	!	!	!LO:MO:mod=ff
2FF 2FFF/	2f 2B- 2F\	ff	(2ff 2b-\	.	2fff 2bb-\	sf
!	!LO:TX:b:i:t=marcatissimo	!	!	!	!LO:TX:b:i:t=marcatissimo	!
!	!LO:SIC:s=4en 4B- 4En\^:v	!	!	!	!	!
!	!	!	!LO:SIC:s=4een 4b-\^:v	!	!LO:SIC:s=4eeen 4bb-\^:v	!
4GGn 4GGGn/	4en 4B- 4En\	.	4een 4b-\	.	4eeen 4bb-\	.
=246	=246	=246	=246	=246	=246	=246
!	!	!	!LO:SIC:s=4ee-X 4cc\^:v	!	!LO:SIC:s=4eee-X 4ccc\^:v	!
2.AA- 2.AAA-/	4e-X 4c 4E-X^>\	.	4ee-X 4cc\	.	4eee-X 4ccc\	.
!	!	!	!LO:SIC:s=4dd 4a-\^:v	!	!LO:SIC:s=4ddd 4aa-\^:v	!
.	4e- 4d 4A- 4E-^>\	.	4dd 4a-\	.	4ddd 4aa-\	.
!	!	!	!LO:SIC:s=4dd-X 4a-\)^:v	!	!LO:SIC:s=4ddd-X 4aa-\^:v	!
.	4e- 4d-X 4A- 4E-^>\	.	4dd-X 4a-\)	.	4ddd-X 4aa-\	.
=247	=247	=247	=247	=247	=247	=247
2.AAn 2.AAAn/	2dn 2c 2F#X^>\	.	(<2cc 2f#X^>/	.	(>2ccc 2ff#X^\	.
!	!	!	!LO:SIC:s=4bn/^:v	!	!LO:SIC:s=4bbn\^:v	!
.	4d 4Bn^>\	.	4bn/	.	4bbn\	.
=248	=248	=248	=248	=248	=248	=248
!	!	!	!	!	!LO:SIC:s=4bb-X 4gg\^:v	!
!	!	!	!LO:SIC:s=4b-X 4g/^:v	!	!	!
2.BB- 2.BBB-/	4d 4B-X^>\	.	4b-X 4g/	.	4bb-X 4gg\	.
!	!	!	!LO:SIC:s=4an/^:v	!	!LO:SIC:s=4aan\^:v	!
.	4d 4An^>\	.	4an/	.	4aan\	.
!	!	!	!LO:SIC:s=4a-X/)^:v	!	!LO:SIC:s=4aa-X\)^:v	!
.	4d 4A-X^>\	.	4a-X/)	.	4aa-X\)	.
=249	=249	=249	=249	=249	=249	=249
!	!LO:SIC:s=(2d 2G\^:v	!	!	!	!	!
2.BBn 2.BBBn/	(2d 2G\	.	(2g^>/	.	(>2gg 2dd^\	.
!	!	!	!	!	!LO:SIC:s=4ff#X\^:v	!
.	4f#X^>\	.	4g^>/	.	4ff#X\	.
=250	=250	=250	=250	=250	=250	=250
!	!	!	!	!	!LO:SIC:s=4ffn 4cc\^:v	!
2.C 2.CC/	4fn 4c 4G^>\	.	4g^>/	.	4ffn 4cc\	.
!	!	!	!	!	!LO:SIC:s=4een\^:v	!
.	4en^>\	.	4g^>/	.	4een\	.
!	!	!	!	!	!LO:SIC:s=4ee-X\)^:v	!
.	4e-X^>\)	.	4g^>/	.	4ee-X\)	.
=251	=251	=251	=251	=251	=251	=251
*	*^	*	*	*	*	*
2.D 2.DD/	(2d^>/	2.F#X\	.	2.f#X^>/	.	(>2dd^\	.
.	4c#X/	.	.	.	.	4cc#X\	.
*	*v	*v	*	*	*	*	*
!LO:LB:g=original	!LO:LB:g=original	!	!	!	!	!
=252	=252	=252	=252	=252	=252	=252
[2.E- [2.EE-/	4cn 4G\	.	2g/)	.	4ccn\	.
.	4B-\	.	.	.	4b-\	.
.	4An\)	.	4r	.	4an/)	.
!	!	!	!LO:LB:g=original	!	!LO:LB:g=original	!
=253	=253	=253	=253	=253	=253	=253
(2E-] 2EE-/]	(2B- 2G\	.	[2.g [2.e-/	.	2.r	.
4D 4DD/	4d\	.	.	.	.	.
=254	=254	=254	=254	=254	=254	=254
2C 2CC/	2c\	.	4g] 4e-/]	.	4r	.
.	.	.	(4g N4e-/	.	4r	.
4BB- 4BBB-/)	4B-\)	.	4g 4d/	.	4dd\N)	.
=255	=255	=255	=255	=255	=255	=255
(2E- 2EE-/	(2B- 2G\	.	[2.g [2.e-/	.	2.r	.
4D 4DD/	4d\	.	.	.	.	.
=256	=256	=256	=256	=256	=256	=256
2C 2CC/	2c\	.	4g] 4e-/]	.	4r	.
.	.	.	(4g N4e-/	.	4r	.
4BB- 4BBB-/)	4B-\)	.	4g 4d/	.	4dd\N)	.
=257	=257	=257	=257	=257	=257	=257
!	!LO:MO:mod=!LO&colon;TX&colon;a&colon;B&colon;t=Presto	!	!	!	!LO:MO:mod=!LO&colon;TX&colon;a&colon;B&colon;t=Presto	!
!	!LO:TX:a:B:t=Presto.	!	!	!	!LO:TX:a:t=Presto.	!
2.AAn 2.AAAn/	2.An\	<	2.en/	.	2.een 2.cc#X\	<
=258	=258	=258	=258	=258	=258	=258
2.BB- 2.BBB-/	2.B-\	.	2.g 2.d/	.	2.gg 2.dd\	.
=259	=259	=259	=259	=259	=259	=259
2.C 2.CC/	2.c\	.	2.b- 2.e-X/	.	2.bb- 2.ee-X\	.
=260	=260	=260	=260	=260	=260	=260
[2.D [2.DD^>/	2.c^\	[	(<2.b- 2.f#X 2.e-^>/	.	(>2.bb- 2.ff#X 2.ee- 2.cc^\	[
=261	=261	=261	=261	=261	=261	=261
2D] 2DD/]	(2B-\	p	2.g 2.d/)	.	2.gg 2.dd 2.b-\)	p
4GG 4GGG/	4G\)	.	.	.	.	.
!LO:PB:g=original	!LO:PB:g=original	!	!LO:PB:g=original	!	!LO:PB:g=original	!
=262	=262	=262	=262	=262	=262	=262
*ped	*	*	*ped	*	*	*
4r	4r	.	(2.e- 2.c^>/	.	(<2.b- 2.f#X^>/	f > ]]
(8DD^>/L	(8D^>/L	mf	.	.	.	.
8CC#X/	8C#X/	.	.	.	.	.
*	*	*	*Xped	*	*	*
8CCn/	8Cn/	.	.	.	.	.
8BBBn/J	8BBn/J	.	.	.	.	.
*Xped	*	*	*	*	*	*
=263	=263	=263	=263	=263	=263	=263
4BBB-X'/)	4BB-X'/)	.	4d 4G'/)	.	4g'/)	.
4r	4r	.	4r	.	4r	.
4GGG/	4GG'/	.	4r	.	4r	.
=264	=264	=264	=264	=264	=264	=264
*ped	*	*	*ped	*	*	*
4r	4r	.	(<2.e- 2.c/	.	(<2.b- 2.f#X^>/	>
(8DD^>/L	(8D^>/L	.	.	.	.	.
8CC#X/	8C#X/	.	.	.	.	.
*	*	*	*Xped	*	*	*
8CCn/	8Cn/	.	.	.	.	.
8BBBn/J	8BBn/J	.	.	.	.	.
*Xped	*	*	*	*	*	*
=265	=265	=265	=265	=265	=265	=265
4BBB-X'/)	4BB-X'/)	.	4d 4G'/)	.	4g'/)	]
4r	4r	.	4r	.	4r	.
[4GG [4GGG^>/	4r	.	4r	.	4r	.
=266	=266	=266	=266	=266	=266	=266
*ped	*	*	*ped	*	*	*
2GG] 2GGG/]	4e- 4Bn 4A- 4F^>\	.	([2.a- [2.fn^>/	.	(>[2.ee- [2.bn^\	sf
.	(8e-^>\L	.	.	.	.	.
.	8d\	.	.	.	.	.
4r	8B\	.	.	.	.	.
.	8A-\J	.	.	.	.	.
=267	=267	=267	=267	=267	=267	=267
8G\	8r	.	2.a-_ 2.f/_	.	2.ee-_ 2.b\_	.
8r	8F#X/L	.	.	.	.	.
4r	8Fn/	.	.	.	.	.
.	(8D/	.	.	.	.	.
4r	8BBn/	.	.	.	.	.
.	8AA-/J	.	.	.	.	.
!LO:LB:g=original	!LO:LB:g=original	!	!	!	!	!
=268	=268	=268	=268	=268	=268	=268
4r	8GG/L	.	2a-] 2f/]	.	2ee-] 2b\]	.
.	8FF#X/)	.	.	.	.	.
(8FFn/L	8r	.	.	.	.	.
8DD/	8D/	.	.	.	.	.
8BBBn/	8BBn/	.	4d/	.	4dd\	.
*	*	*	*Xped	*	*	*
8AAA-/J	8AA-/J	.	.	.	.	.
*Xped	*	*	*	*	*	*
=269	=269	=269	=269	=269	=269	=269
4GGG')	4GG'/)	.	4en 4c'/)	.	4cc 4b-X'\)	.
4r	4r	.	4r	.	4r	.
4GGG'	4GG'/	.	4r	.	4r	.
=270	=270	=270	=270	=270	=270	=270
*ped	*	*	*ped	*	*	*
8r	8r	.	(<2.f 2.d-X^>/	.	(>2.dd-X 2.b-^>\	>]
(8GG/L	(8G\L	<	.	.	.	.
8AA-/	8A-\	.	.	.	.	.
8AAn/	8An\	.	.	.	.	.
*	*	*	*Xped	*	*	*
8BB-/	8B-\	.	.	.	.	.
*Xped	*	*	*	*	*	*
8BBn/J	8Bn\J	[[	.	.	.	.
!	!	!	!LO:LB:g=original	!	!LO:LB:g=original	!
=271	=271	=271	=271	=271	=271	=271
4C'/)	4c'\)	sf	4en'/)	.	4cc 4b-'\)	.
4r	4r	.	4r	.	4r	.
4GG 4GGG'/	4r	.	4r	.	4r	.
=272	=272	=272	=272	=272	=272	=272
*ped	*	*	*ped	*	*	*
8r	8r	.	(<2.f 2.d-X^>/	.	(>2.dd-X 2.b-^\	>]
(8GG/L	(8G\L	<	.	.	.	.
8AA-X/	8A-X\	.	.	.	.	.
8AAn/	8An\	.	.	.	.	.
*	*	*	*Xped	*	*	*
8BB-X/	8B-X\	.	.	.	.	.
8BBn/J	8Bn\J	[[	.	.	.	.
*Xped	*	*	*	*	*	*
=273	=273	=273	=273	=273	=273	=273
4C'/)	4c'\)	f	4en'/)	.	4cc 4b-'\)	.
4r	4r	.	4r	.	4r	.
[4C [4CC^>/	4r	.	4r	.	4r	.
!LO:LB:g=original	!LO:LB:g=original	!	!	!	!	!
=274	=274	=274	=274	=274	=274	=274
*ped	*	*	*ped	*	*	*
2.C] 2.CC/]	4f 4d-X 4B-^>\	.	[2.b- [2.a-^>/	.	(>[2.aa- [2.dd-X^>\	sf
.	(>8f\L	.	.	.	.	.
.	8en\	.	.	.	.	.
.	8d-\	.	.	.	.	.
.	8B-\J	.	.	.	.	.
=275	=275	=275	=275	=275	=275	=275
!	!LO:MO:mod=!null:null	!	!	!	!	!
!	!LO:TX:b:i:t=g.	!	!	!	!	!
4r	8G\L	.	2.b-_ 2.a-/_	.	2.aa-_ 2.dd-\_	.
.	8F#X\	.	.	.	.	.
8r	8Fn\	.	.	.	.	.
!LO:MO:mod=!null:null	!	!	!	!	!	!
!LO:TX:a:i:t=d.	!	!	!	!	!	!
4r>	8En</	.	.	.	.	.
.	8D-X</	.	.	.	.	.
8r>	8BB-</J)	.	.	.	.	.
=276	=276	=276	=276	=276	=276	=276
(8GG/L	4r	.	(2b-] 2a-/]	.	2aa-] 2dd-\]	.
8FF#X/	.	.	.	.	.	.
8FFn/	8r	.	.	.	.	.
!LO:MO:mod=!null:null	!	!	!	!	!	!
!LO:TX:a:i:t=g.	!	!	!	!	!	!
8EEn/	(8En/L	.	.	.	.	.
8DD-X/	8D-X/	.	4g/	.	4gg\	.
*Xped	*	*	*Xped	*	*	*
8BBB-/J	8BB-/J	.	.	.	.	.
=277	=277	=277	=277	=277	=277	=277
4AAA-/)	4AA-/)	.	4f 4c'/)	.	4ff 4cc'\)	.
4r	4r	.	4r	.	4r	.
4C 4CC/	4r	.	4r	.	4r	.
=278	=278	=278	=278	=278	=278	=278
*ped	*	*	*ped	*	*	*
8r	(8d-XL 8B-\	ff <	(<2.a- 2.en^>/	.	(>2.aa- 2.een 2.dd-X 2.b-^\	sf
(8C\L	8c\	.	.	.	.	.
8C#X\	8Bn\	.	.	.	.	.
8Dn\	8B-X\	.	.	.	.	.
*	*	*	*Xped	*	*	*
8E-X\	8A-\	.	.	.	.	.
*Xped	*	*	*	*	*	*
8En\J	8G\J	[	.	.	.	.
!	!	!	!LO:LB:g=original	!	!LO:LB:g=original	!
=279	=279	=279	=279	=279	=279	=279
4F'\)	4A-'\)	f	4f 4c'/)	.	4ff 4cc'\)	.
4r	4r	.	4r	.	4r	.
[4C [4CC^>/	4r	.	4r	.	4r	.
!LO:LB:g=original	!LO:LB:g=original	!	!	!	!	!
=280	=280	=280	=280	=280	=280	=280
*ped	*	*	*ped	*	*	*
(8C]L 8CC/]	8r	.	(2.a- 2.en 2.d-X 2.B-^>/	.	(>2.aa- 2.een 2.dd-X 2.b-^\	sf >
8CC/	(8C\L	<	.	.	.	.
8CC#X/	8C#X\	.	.	.	.	.
8DDn/	8Dn\	.	.	.	.	.
*	*	*	*Xped	*	*	*
8EE-X/	8E-X\	.	.	.	.	.
*Xped	*	*	*	*	*	*
8EEn/J	8En\J	.	.	.	.	.
=281	=281	=281	=281	=281	=281	=281
4FF'/)	4F\)	[	4a- 4f 4c'/)	.	4ff 4cc'\)	]
4r	4r	.	4r	.	4r	.
4EE-X'/	4E-X'\	.	4r	.	4r	.
=282	=282	=282	=282	=282	=282	=282
*ped	*	*	*ped	*	*	*
4DD-X'/	4D-X'\	sf	[>2.a- [>2.f [<2.A-^>/	.	[2.aa- [2.ff^\	sf
(>8AAA-/L	(>8AA-/L	p <	.	.	.	.
8GGG/	8GG/	.	.	.	.	.
8AAA-/	8AA-/	.	.	.	.	.
8BBB-/J	8BB-/J	.	.	.	.	.
=283	=283	=283	=283	=283	=283	=283
8CC/L	8C/L	.	4a-] 4f] 4A-/]	.	4aa-] 4ff\]	<
8BBB-/	8BB-/	.	.	.	.	.
8CC/	8C/	.	4a- 4f/	.	4aa- 4ff\	.
8DD-X/	8D-X/	.	.	.	.	.
8EE-/	8E-/	.	4a- 4f/	.	4aa- 4ff\	.
8FF/J	8F/J	.	.	.	.	.
=284	=284	=284	=284	=284	=284	=284
8GG/L	8G\L	.	4a- 4f/	.	4aa- 4ff\	.
8AA-/	8A-\	.	.	.	.	.
8BB-/	8B-\	.	4a- 4f/	.	4aa- 4ff\	.
8C/	8c\	.	.	.	.	.
8D-X/	8d-X\	.	4a-/	.	4aa- 4ff\	[[
!	!	!	!LO:MO:mod=*null:null	!	!	!
*	*	*	*Xped	*	*	*
8E-/J	8e-\J	[	.	.	.	.
!LO:LB:g=original	!LO:LB:g=original	!	!	!	!	!
=285	=285	=285	=285	=285	=285	=285
!	!	!	!LO:MO:mod=*Xped:null	!	!	!
*	*	*	*null	*	*	*
*Xped	*	*	*	*	*	*
4F'\)	4f'\)	sf	4a-'/	.	4aa- 4ff'\	ff
2r	2r	.	4r	.	4r	.
.	.	.	4r	.	4r	.
=286	=286	=286	=286	=286	=286	=286
!	!LO:MO:mod=!null:null	!	!	!	!LO:MO:mod=!null:null	!
!	!LO:TX:b:t=3	!	!	!	!LO:TX:b:t=3	!
2.r	2.r	.	2.r	.	2.r	.
=287	=287	=287	=287	=287	=287	=287
2.r	2.r	.	2.r	.	2.r	.
=288	=288	=288	=288	=288	=288	=288
2.r	2.r	.	2.r	.	2.r	.
*	*clefG2	*	*	*	*	*
=289	=289	=289	=289	=289	=289	=289
*	*clefG2	*	*	*	*	*
!	!LO:MO:mod=!null:null	!	!	!	!	!
!	!LO:TX:a:B:t=Più lento.	!	!	!	!	!
!	!LO:N:cue	!	!	!	!	!
2.r	4r	.	4r	.	4r	.
!	!LO:N:cue	!	!	!	!	!
.	4r	.	4r	.	4r	.
!	!	!	!	!	!LO:MO:mod=!null:null	!
!	!LO:N:cue	!	!	!	!LO:TX:a:B:t=Più lento.	!
.	8.r	.	8.r	.	8.r	.
!	!LO:N:cue	!	!	!	!	!
!	!LO:MO:mod=!LO&colon;TX&colon;a&colon;B&colon;t=Più lento	!	!	!	!LO:MO:mod=!LO&colon;TX&colon;a&colon;B&colon;t=Più lento	!
!	!null	!	!	!	!null	!
.	(<16A/	.	(16A-/	.	16a-/	<
=290	=290	=290	=290	=290	=290	=290
*ped	*	*	*ped	*	*	*
!	!	!	!	!	!LO:MO:mod=!LO&colon;TX&colon;b&colon;i&colon;t=espressivo	!
!	!LO:N:cue	!	!	!	!LO:TX:b:i:t=espress.	!
2.r	2.a-)	.	[2.a-^>/)	.	[2.aa-^\	[[
*	*clefF4	*	*	*	*	*
!LO:LB:g=original	!LO:LB:g=original	!	!LO:LB:g=original	!	!LO:LB:g=original	!
=291	=291	=291	=291	=291	=291	=291
4GG 4GGG/	4e- 4Bn 4F\	.	(4a-/]	.	(>4aa-\]	>
!LO:MO:mod=*Xped:null	!	!	!	!	!	!
*null	*	*	*	*	*	*
4r	4r	.	4g/	.	4gg\	.
!LO:MO:mod=*null:null	!	!	!	!	!	!
*Xped	*	*	*Xped	*	*	*
4r	4r	.	4f/	.	4ff\	.
=292	=292	=292	=292	=292	=292	=292
!	!LO:MO:mod=!null:null	!	!	!	!	!
!	!LO:TX:b:t=6	!	!	!	!	!
0.r	0.r	.	4d^>/	.	4dd^>\	.
.	.	.	4Bn/	.	4bn\	.
.	.	.	4A-/	.	4a-/	]
=293	=293	=293	=293	=293	=293	=293
.	.	.	2G/	.	2g/	p
.	.	.	8B-X/L	.	8b-X/L	.
.	.	.	8A-/J	.	8a-/J	.
=294	=294	=294	=294	=294	=294	=294
*	*	*	*ped	*	*	*
.	.	.	[2.G/)	.	[2.g/)	.
=295	=295	=295	=295	=295	=295	=295
.	.	.	2.G/]	.	2.g/]	.
=296	=296	=296	=296	=296	=296	=296
1.r	1.r	.	(<[<2G/	.	(>[>2g/	.
.	.	.	8.G/L]	.	8.g\L]	.
*	*	*	*Xped	*	*	*
.	.	.	16g/Jk)	.	16gg\Jk)	.
=297	=297	=297	=297	=297	=297	=297
*	*	*	*ped	*	*	*
!	!	!	!	!	!LO:MO:mod=!null:null	!
!	!	!	!	!	!LO:TX:b:t=cresc._ _ _:ext=ud:problem=dynamics with extention lines	!LO:HP:t=cresc._ _ _:ext=ud
.	.	.	(<[<2.g/	.	(>[>2.gg\	<
=298	=298	=298	=298	=298	=298	=298
4C 4CC/	4e- 4c 4G\	p	2g/_	.	2gg\_	.
4r	4r	.	.	.	.	.
4r	4r	.	8.g/L]	.	8.gg\L]	.
*	*	*	*Xped	*	*	*
.	.	.	16a-/Jk	.	16aa-\Jk	.
=299	=299	=299	=299	=299	=299	=299
!LO:MO:mod=*null:null	!	!	!	!	!	!
*ped	*	*	*ped	*	*	*
!	!LO:MO:mod=!null:null	!	!	!	!	!
!	!LO:TX:b:t=1	!	!	!	!	!
2.r	2.r	.	[2.an/)	.	[2.aan\)	[
!LO:LB:g=original	!LO:LB:g=original	!	!LO:LB:g=original	!	!LO:LB:g=original	!
=300	=300	=300	=300	=300	=300	=300
4C 4CC/	4e- 4c 4G\	mf	(2anX/_<	.	(>2aanX\_	<
4r	4r	.	.	.	.	.
4r	4r	.	8.a/L]	.	8.aa\L]	.
*	*	*	*Xped	*	*	*
.	.	.	16b-/Jk	.	16bb-\Jk	.
=301	=301	=301	=301	=301	=301	=301
!	!LO:MO:mod=!null:null	!	!	!	!	!
!	!LO:TX:b:t=3	!	!	!	!	!
1.r	1.r	.	4bn'/)	.	4bbn'\)	[
.	.	.	4r	.	4r	.
.	.	.	4r	.	4r	.
=302	=302	=302	=302	=302	=302	=302
*	*	*	*ped	*	*	*
.	.	.	[2.cc^>\	.	[2.ccc^>\	sf >
=303	=303	=303	=303	=303	=303	=303
2.r	2.r	.	2.cc\]	.	2.ccc\]	]]
=304	=304	=304	=304	=304	=304	=304
*ped	*	*	*	*	*	*
!	!	!	!LO:MO:mod=*ped:null	!	!	!
*	*	*	*null	*	*	*
(4GG 4GGG'/	(4c 4G 4E-'\	.	(<4cc 4g'/	.	(>4ccc 4ee-'\	p
4r	4r	.	4r	.	4r	.
4r	4r	.	4r	.	4r	.
=305	=305	=305	=305	=305	=305	=305
4CC 4CCC'/)	4c 4G 4E-'\)	.	4cc 4g'/)	.	4ccc 4ee-'\)	.
!LO:MO:mod=*Xped:null	!	!	!LO:MO:mod=*Xped:null	!	!	!
*null	*	*	*null	*	*	*
8r	4r	.	4r	.	4r	.
8r	.	.	.	.	.	.
4r	4r	.	4r	.	4r	.
=306	=306	=306	=306	=306	=306	=306
!	!LO:MO:mod=!null:null	!	!	!	!LO:MO:mod=!null:null	!
!	!LO:TX:b:t=1	!	!	!	!LO:TX:b:t=1	!
2.r	2.r	.	2.r	.	2.r	.
=307	=307	=307	=307	=307	=307	=307
4CC 4CCC/	4c 4G 4E-\	pp	4cc 4g/	.	4ccc 4ee-\	pp
4r	4r	.	4r	.	4r	.
4r	4r	.	4r	.	4r	.
=308	=308	=308	=308	=308	=308	=308
!	!LO:MO:mod=!null:null	!	!	!	!LO:MO:mod=!null:null	!
!	!LO:TX:b:t=1	!	!	!	!LO:TX:b:t=1	!
2.r	2.r	.	2.r	.	2.r	.
=309	=309	=309	=309	=309	=309	=309
2.CC 2.CCC;>/	2.C;>/	.	2.c;>/	.	2.r;>	.
!LO:MO:mod=*null:null	!	!	!LO:MO:mod=*null:null	!	!	!
*Xped	*	*	*Xped	*	*	*
==	==	==	==	==	==	==
*-	*-	*-	*-	*-	*-	*-
!!!system-decoration: {(s1,s2)}{(s3,s4)}
!!!RDF**kern: < = below
!!!RDF**kern: > = above
!!!RDF**kern: N = linked
!!!filter-modern: sic -sq | shed -e "s/LO:DY:(a|b|rj)/LO:dy:$1/L" | shed -e "s/TX(.*):t=P:/tx$1:t=P:/LG" | modori -m | autostem -r | shed -e "s/yy//" | shed -k -e "s/\(y([^y])/($1/" | shed -e "s/-//B" | shed -k -e "s/[<>]//g" | shed -k -e "s/:TUP:/:tup:/L" | shed -k -e "s/r[a-gA-G]+/r/D"
!!!ENC: Anastazja Marusiak
!!!END: 2022-01-30
!!!ENC: Marta Chmielewska
!!!END: 2022-02-11
!!!EED-modern: Antoni Szymański
!!!END-modern: 2022-09-27
!!!YEC: Copyright 2022 Narodowy Instytut Fryderyka Chopina (https://polishscores.org)
!!!YEM: License CC-BY-4.0 (https://creativecommons.org/licenses/by/4.0)
